!!!!SEGMENT: pl-kk--kk-i-341_gorczycki-grzegorz-gerwazy--iesu-redemptor-omnium.krn
!!!cenid: 17xx:2152
!!!COM: Gorczycki, Grzegorz Gerwazy
!!!COM-rismID: pe30009207
!!!CDT: ~1666-1734/04/30
!!!CNT: Polish
!!!OTL: Iesu redemptor omnium
!!!PDT:
!!!AGN: Sacred
!!!YEC: Copyright 2022 Narodowy Instytut Fryderyka Chopina (https://polishscores.org)
!!!YEM: License CC-BY-4.0 (https://creativecommons.org/licenses/by/4.0)
!!!SMS-siglum: PL-Kk
!!!SMS-shelfmark: Kk.I.341
!!!SMS-variant:
!!!SMS-altvar:
!!!SMS-shelfwork: W
!!!NIFC-rismSourceID: 1001144999
!!!NIFC-rismChildID: 1001144999
!!!NIFC-islandoraID: pl-kk:5698
!!!URL-pdf-islandora: https://repozytorium.nifc.pl/islandora/object/pl-kk%3A5698/datastream/PDF/view
!!!URL-scan: https://polish.musicsources.pl/pl/lokalizacje/galeria/rekopisy/5958 @EN{Scan on Polish Music Sources Website} @PL{Skany w portalu Dziedzictwo Muzyki Polskiej w otwartym dostępie}
!!!IIIF:
!!!ONB-nifc:
!!!AIN: 1 alto 1 bass 1 soprn 1 tenor
!!!key: A
!!!OMD:
!!!OMD-mod: Hymnus de Nativitate Domini
**kern	**text	**mod-text	**kern	**text	**mod-text	**kern	**text	**mod-text	**kern	**text	**mod-text
*part4	*	*	*part3	*	*	*part2	*	*	*part1	*	*
*staff4	*	*	*staff3	*	*	*staff2	*	*	*staff1	*	*
*Ibass	*	*	*Itenor	*	*	*Ialto	*	*	*Isoprn	*	*
*I"Baſso.	*	*	*I"Tenore.	*	*	*I"Alto.	*	*	*I"Canto.	*	*
*mI"Basso	*	*	*mI"Tenore	*	*	*mI"Alto	*	*	*mI"Soprano	*	*
*I'B	*	*	*I'T	*	*	*I'A	*	*	*I'S	*	*
*ICvox	*	*	*ICvox	*	*	*ICvox	*	*	*ICvox	*	*
*clefF4	*	*	*clefC4	*	*	*clefC3	*	*	*clefC1	*	*
*	*	*	*mclefGv2	*	*	*mclefG2	*	*	*mclefG2 	*	*
*k[]	*	*	*k[]	*	*	*k[]	*	*	*k[]	*	*
*A:	*	*	*A:	*	*	*A:	*	*	*A:	*	*
*M3/2	*	*	*M3/2	*	*	*M3/2	*	*	*M3/2	*	*
=1-	=1-	=1-	=1-	=1-	=1-	=1-	=1-	=1-	=1-	=1-	=1-
*2\right	*	*	*2\right	*	*	*2\right	*	*	*2\right	*	*
!LO:TX:a:t=Hymnus de Nativitate D(omin)i.:mod=	!LO:MO:mod=Je-	!LO:MO:mod=Je-	!LO:TX:a:t=Hymnus de Nativitate D(omin)i:mod=	!LO:MO:mod=Je-	!LO:MO:mod=Je-	!LO:TX:a:t=Hymnus de Nativitate D(omin)i.:mod=	!LO:MO:mod=Je-	!LO:MO:mod=Je-	!LO:TX:a:t=Hymnus de Nativitate D(omin)i.:mod=	!LO:MO:mod=Je-	!LO:MO:mod=Je-
2D\	JE-	JE-	2d\	JE-	JE-	2f\	JE-	JE-	2a\	JE-	JE-
2C#X/	-ſu	-su	2A\	-ſu	-su	2e\	-ſu	-su	2a\	-ſu	-su
!LO:TX:t=P:problem=kreska pseudotaktowa:mod=	!	!	!LO:TX:t=P:problem=kreska pseudotaktowa:mod=	!	!	!LO:TX:t=P:problem=kreska pseudotaktowa:mod=	!	!	!LO:TX:t=P:problem=kreska pseudotaktowa:mod=	!	!
2D\	Re-	Re-	2d\	Re-	Re-	2f\	Re-	Re-	2a\	Re-	Re-
=2-	=2-	=2-	=2-	=2-	=2-	=2-	=2-	=2-	=2-	=2-	=2-
1GG	-demp-	-demp-	1d	-demp-	-demp-	1f	-demp-	-demp-	1b-X	-demp-	-demp-
!LO:TX:t=P:problem=kreska pseudotaktowa:mod=	!	!	!LO:TX:t=P:problem=kreska pseudotaktowa:mod=	!	!	!LO:TX:t=P:problem=kreska pseudotaktowa:mod=	!	!	!LO:TX:t=P:problem=kreska pseudotaktowa:mod=	!	!
2Cny/	-tor	-tor	2c\	-tor	-tor	2e\	-tor	-tor	2g\	-tor	-tor
=3-	=3-	=3-	=3-	=3-	=3-	=3-	=3-	=3-	=3-	=3-	=3-
2.F\	om-	om-	2.c\	om-	om-	2.f\	om-	om-	2.a\	om-	om-
4F\	-ni-	-ni-	4c\	-ni-	-ni-	4f\	-ni-	-ni-	4a\	-ni-	-ni-
!LO:TX:t=P:problem=kreska pseudotaktowa:mod=	!	!	!LO:TX:t=P:problem=kreska pseudotaktowa:mod=	!	!	!LO:TX:t=P:problem=kreska pseudotaktowa:mod=	!	!	!LO:TX:t=P:problem=kreska pseudotaktowa:mod=	!	!
2F\	-um	-um,	2c\	-um	-um,	2f\	-um	-um,	2a\	-um	-um,
!LO:MO:mod==4||	!	!	!LO:MO:mod==4||	!	!	!LO:MO:mod==4||	!	!	!LO:MO:mod==4||	!	!
=4-	=4-	=4-	=4-	=4-	=4-	=4-	=4-	=4-	=4-	=4-	=4-
*M2/2	*	*	*M2/2	*	*	*M2/2	*	*	*M2/2	*	*
*met(C|)	*	*	*met(C|)	*	*	*met(C|)	*	*	*met(C|)	*	*
*mmet(c|)	*	*	*mmet(c|)	*	*	*mmet(c|)	*	*	*mmet(c|)	*	*
!	!	!	!	!	!	!	!	!	!LO:TX:t=P:problem=kreska pseudotaktowa:mod=	!	!
00r	.	.	00r	.	.	0r	.	.	1g	Quem	Quem
=5-	=5-	=5-	=5-	=5-	=5-	=5-	=5-	=5-	=5-	=5-	=5-
!	!	!	!	!	!	!	!	!	!LO:TX:t=P:problem=kreska pseudotaktowa:mod=	!	!
.	.	.	.	.	.	.	.	.	1a	lu-	lu-
=6-	=6-	=6-	=6-	=6-	=6-	=6-	=6-	=6-	=6-	=6-	=6-
!	!	!	!	!	!	!	!	!	!LO:TX:t=P:problem=kreska pseudotaktowa:mod=	!	!
.	.	.	.	.	.	1r	.	.	1cc	.	.
=7-	=7-	=7-	=7-	=7-	=7-	=7-	=7-	=7-	=7-	=7-	=7-
!	!	!	!	!	!	!LO:TX:t=P:problem=kreska pseudotaktowa:mod=	!	!	!LO:TX:t=P:problem=kreska pseudotaktowa:mod=	!	!
.	.	.	.	.	.	1c	Quem	Quem	1cc	-cis	-cis
=8-	=8-	=8-	=8-	=8-	=8-	=8-	=8-	=8-	=8-	=8-	=8-
!	!	!	!	!	!	!	!	!	!LO:TX:t=P:problem=kreska pseudotaktowa:mod=	!	!
00r	.	.	1r	.	.	2.e\	lu-	lu-	1cc	an	an
!	!	!	!	!	!	!LO:TX:t=P:problem=kreska pseudotaktowa:mod=	!	!	!	!	!
.	.	.	.	.	.	4f\	.	.	.	.	.
=9-	=9-	=9-	=9-	=9-	=9-	=9-	=9-	=9-	=9-	=9-	=9-
!	!	!	!LO:TX:t=P:problem=kreska pseudotaktowa:mod=	!	!	!	!	!	!LO:TX:t=P:problem=brak źródła-urwana kartka	!	!
!	!	!	!	!	!	!	!	!	!LO:MO:mod=1b@	!	!
.	.	.	1G	Quem	Quem	2g\	.	.	1ryy	.	.
!	!	!	!	!	!	!LO:TX:t=P:problem=kreska pseudotaktowa:mod=	!	!	!	!	!
.	.	.	.	.	.	2g\	-cis	-cis	.	.	.
=10-	=10-	=10-	=10-	=10-	=10-	=10-	=10-	=10-	=10-	=10-	=10-
!	!	!	!LO:TX:t=P:problem=kreska pseudotaktowa:mod=	!	!	!LO:TX:t=P:problem=kreska pseudotaktowa:mod=	!	!	!	!	!
!	!	!	!	!	!	!	!	!	!LO:MO:mod=2a@	!	!
.	.	.	1A	lu-	lu-	1f	an te	an	1ryy	.	[-te
!	!	!	!	!	!	!	!	!	!LO:MO:null:mod=[2cc@	!	!
.	.	.	.	.	.	.	.	.	.	.	o-
=11-	=11-	=11-	=11-	=11-	=11-	=11-	=11-	=11-	=11-	=11-	=11-
!	!	!	!LO:TX:t=P:problem=kreska pseudotaktowa:mod=	!	!	!LO:TX:t=P:problem=brak źródła-urwana kartka	!	!	!LO:MO:mod=4cc]@	!	!
!	!	!	!	!	!	!LO:MO:mod=2e@	!	!	!	!	!
.	.	.	1c	.	.	1ryy	.	[-te	2ryy	.	.
!	!	!	!	!	!	!	!	!	!LO:MO:null:mod=4dd@	!	!
.	.	.	.	.	.	.	.	.	.	.	.
!	!	!	!	!	!	!LO:MO:null:mod=[2c@	!	!	!LO:LB:g=original	!	!
.	.	.	.	.	.	.	.	o-]	[2ee\	ri-	ri-]
=12-	=12-	=12-	=12-	=12-	=12-	=12-	=12-	=12-	=12-	=12-	=12-
!LO:TX:t=P:problem=kreska pseudotaktowa:mod=	!	!	!LO:TX:t=P:problem=kreska pseudotaktowa:mod=	!	!	!	!	!	!	!	!
!	!	!	!	!	!	!LO:MO:mod=4c@]	!	!	!	!	!
1C	Quem	Quem	1c	-cis	-cis	1ryy	.	.	4ee\]	.	.
!	!	!	!	!	!	!LO:MO:null:mod=4d@	!	!	!	!	!
.	.	.	.	.	.	.	.	.	4dd\	-gi-	-gi-
!	!	!	!	!	!	!LO:MO:null:mod=4e@	!	!	!LO:TX:t=P:problem=kreska pseudotaktowa:mod=	!	!
.	.	.	.	.	.	.	.	.	2cc\	-nem	-nem,
!	!	!	!	!	!	!LO:MO:null:mod=4f@	!	!	!	!	!
.	.	.	.	.	.	.	.	.	.	.	.
!	!	!	!	!	!	!LO:LB:g=original	!	!	!	!	!
=13-	=13-	=13-	=13-	=13-	=13-	=13-	=13-	=13-	=13-	=13-	=13-
!	!	!	!LO:TX:t=P:problem=brak źródła-urwana kartka	!	!	!	!	!	!LO:TX:t=P:problem=kreska pseudotaktowa:mod=	!	!
!	!	!	!LO:MO:mod=1c@	!	!	!	!	!	!	!	!
2.E/	lu	lu	1ryy	.	[an-	4g\	[o-]-	.	1r	.	.
.	.	.	.	.	.	4f\	.	.	.	.	.
!	!	!	!	!	!	!LO:TX:t=P:problem=kreska pseudotaktowa:mod=	!	!	!	!	!
.	.	.	.	.	.	2e\	.	.	.	.	.
!LO:TX:t=P:problem=brak źródła-urwana kartka	!	!	!	!	!	!	!	!	!	!	!
!LO:MO:mod=4F@	!	!	!	!	!	!	!	!	!	!	!
4ryy	.	.	.	.	.	.	.	.	.	.	.
=14-	=14-	=14-	=14-	=14-	=14-	=14-	=14-	=14-	=14-	=14-	=14-
!LO:MO:mod=2G@	!	!	!LO:MO:mod=1B@	!	!	!	!	!	!LO:TX:t=P:problem=kreska pseudotaktowa:mod=	!	!
1ryy	.	.	1ryy	.	.	2d\	.	.	1g	Quem	Quem
!LO:MO:null:mod=2G@	!	!	!	!	!	!LO:TX:t=P:problem=kreska pseudotaktowa:mod=	!	!	!	!	!
.	.	[-cis	.	.	.	2g\	.	.	.	.	.
=15-	=15-	=15-	=15-	=15-	=15-	=15-	=15-	=15-	=15-	=15-	=15-
!LO:MO:mod=1F@	!	!	!LO:MO:mod=1A@	!	!	!	!	!	!LO:TX:t=P:problem=kreska pseudotaktowa:mod=	!	!
1ryy	.	an-	1ryy	.	-te	2c\	.	.	1a	lu-	lu-
!	!	!	!	!	!	!LO:TX:t=P:problem=kreska pseudotaktowa:mod=	!	!	!	!	!
.	.	.	.	.	.	2f\	.	.	.	.	.
=16-	=16-	=16-	=16-	=16-	=16-	=16-	=16-	=16-	=16-	=16-	=16-
!LO:MO:mod=2E@	!	!	!LO:MO:mod=1G@	!	!	!	!	!	!LO:SIC:s=2b	!	!
2ryy	.	-te]	1ryy	.	o-]	2B/	.	.	2bny,\	-cis,	-cis
!LO:LB:g=original	!	!	!	!	!	!	!	!	!	!	!
[2C/	o-	o-	.	.	.	[2e\	.	.	[2cc\	an-	an-
!	!	!	!LO:LB:g=original	!	!	!	!	!	!	!	!
=17-	=17-	=17-	=17-	=17-	=17-	=17-	=17-	=17-	=17-	=17-	=17-
!	!	!	!LO:TX:t=P:problem=kreska pseudotaktowa:mod=	!	!	!	!	!	!	!	!
2C/]	.	.	1A	ri-	ri-	2e\]	.	.	2cc\]	.	.
!LO:TX:t=P:problem=kreska pseudotaktowa:mod=	!	!	!	!	!	!LO:TX:t=P:problem=kreska pseudotaktowa:mod=	!	!	!	!	!
2D\	.	.	.	.	.	2f\	.	.	[2a/	-te	-te
=18-	=18-	=18-	=18-	=18-	=18-	=18-	=18-	=18-	=18-	=18-	=18-
4AA/	.	.	2.c\	.	.	2.e\	.	.	2a/]	.	.
4BB/	.	.	.	.	.	.	.	.	.	.	.
4C/	.	.	.	.	.	.	.	.	4ee\	o-	o-
!LO:TX:t=P:problem=kreska pseudotaktowa:mod=	!	!	!LO:TX:t=P:problem=kreska pseudotaktowa:mod=	!	!	!LO:TX:t=P:problem=kreska pseudotaktowa:mod=	!	!	!LO:TX:t=P:problem=kreska pseudotaktowa:mod=	!	!
4D/	.	.	4c\	-gi-	-gi-	4f\	.	.	4dd\	.	.
=19-	=19-	=19-	=19-	=19-	=19-	=19-	=19-	=19-	=19-	=19-	=19-
!	!	!	!LO:TX:t=P:problem=kreska pseudotaktowa:mod=	!	!	!	!	!	!	!	!
4E\	.	.	1c	-nem	-nem,	4g\	.	.	4cc\	.	.
4D\	.	.	.	.	.	4f\	.	.	4g\	.	.
!	!	!	!	!	!	!LO:TX:t=P:problem=kreska pseudotaktowa:mod=	!	!	!	!	!
4E\	.	.	.	.	.	2e\	.	.	[2cc\	-ri-	-ri-
!LO:TX:t=P:problem=kreska pseudotaktowa:mod=	!	!	!	!	!	!	!	!	!	!	!
4F\	.	.	.	.	.	.	.	.	.	.	.
=20-	=20-	=20-	=20-	=20-	=20-	=20-	=20-	=20-	=20-	=20-	=20-
!	!	!	!LO:TX:t=P:problem=kreska pseudotaktowa:mod=	!	!	!	!	!	!	!	!
2.G\	-ri-	-ri-	1G	pa-	Pa-	2.d\	-ri-	-ri-	2cc\]	.	.
!	!	!	!	!	!	!	!	!	!LO:TX:t=P:problem=kreska pseudotaktowa:mod=	!	!
.	.	.	.	.	.	.	.	.	2b\	-gi-	-gi-
!LO:TX:t=P:problem=kreska pseudotaktowa:mod=	!	!	!	!	!	!LO:TX:t=P:problem=kreska pseudotaktowa:mod=	!	!	!	!	!
4G\	-gi-	-gi-	.	.	.	4d\	-gi-	-gi-	.	.	.
=21-	=21-	=21-	=21-	=21-	=21-	=21-	=21-	=21-	=21-	=21-	=21-
!LO:SIC:s=2C	!	!	!LO:TX:t=P:problem=kreska pseudotaktowa:mod=	!	!	!LO:TX:t=P:problem=kreska pseudotaktowa:mod=	!	!	!LO:TX:t=P:problem=kreska pseudotaktowa:mod=	!	!
2C,/	-nem	-nem,	1c	-rem	-rem	1e	-nem	-nem,	1cc	-nem	-nem,
!LO:TX:t=P:problem=kreska pseudotaktowa:mod=	!	!	!	!	!	!	!	!	!	!	!
2C/	Pa-	Pa-	.	.	.	.	.	.	.	.	.
=22-	=22-	=22-	=22-	=22-	=22-	=22-	=22-	=22-	=22-	=22-	=22-
!LO:TX:t=P:problem=kreska pseudotaktowa:mod=	!	!	!LO:TX:t=P:problem=kreska pseudotaktowa:mod=	!	!	!LO:TX:t=P:problem=kreska pseudotaktowa:mod=	!LO:TX:t=P:problem=kreska pseudotaktowa:mod=	!LO:TX:t=P:problem=kreska pseudotaktowa:mod=	!	!	!
1F	-rem	-rem	1d	.	.	0r	.	.	1r	.	.
=23-	=23-	=23-	=23-	=23-	=23-	=23-	=23-	=23-	=23-	=23-	=23-
!LO:TX:t=P:problem=kreska pseudotaktowa:mod=	!	!	!LO:TX:t=P:problem=kreska pseudotaktowa:mod=	!	!	!	!	!	!LO:TX:t=P:problem=kreska pseudotaktowa:mod=	!	!
1G	.	.	1B	Pa-	pa-	.	.	.	1g	Pa-	Pa-
=24-	=24-	=24-	=24-	=24-	=24-	=24-	=24-	=24-	=24-	=24-	=24-
!	!	!	!LO:TX:t=P:problem=kreska pseudotaktowa:mod=	!	!	!LO:TX:t=P:problem=kreska pseudotaktowa:mod=	!	!	!LO:TX:t=P:problem=kreska pseudotaktowa:mod=	!	!
2E\	Pa-	pa-	1c	-ter-	-ter-	1c	Pa-	pa-	1cc	.	.
[2A\	-ter-	-ter-	.	.	.	.	.	.	.	.	.
!	!	!	!	!	!	!LO:LB:g=original	!	!	!LO:LB:g=original	!	!
=25-	=25-	=25-	=25-	=25-	=25-	=25-	=25-	=25-	=25-	=25-	=25-
!	!	!	!LO:TX:t=P:problem=kreska pseudotaktowa:mod=	!	!	!	!	!	!	!	!
2A\]	.	.	1B	.	.	2f\	-rem	-rem	2dd\	-rem	-rem
!	!	!	!	!	!	!LO:TX:t=P:problem=kreska pseudotaktowa:mod=	!	!	!LO:TX:t=P:problem=kreska pseudotaktowa:mod=	!	!
2G\	-nae	-nae	.	.	.	2g\	Pa-	pa-	2b\	Pa-	pa-
=26-	=26-	=26-	=26-	=26-	=26-	=26-	=26-	=26-	=26-	=26-	=26-
!LO:TX:t=P:problem=brak źródła-urwana kartka	!	!	!LO:TX:t=P:problem=kreska pseudotaktowa:mod=	!	!	!	!	!	!	!	!
!LO:MO:mod=1F@	!	!	!	!	!	!	!	!	!	!	!
1ryy	.	glo-	1A	.	.	4a\	-ter-	-ter-	4cc\	-ter-	-ter-
.	.	.	.	.	.	4g\	.	.	4a\	-nae	-nae
.	.	.	.	.	.	4f\	.	.	[2dd\	glo-	glo-
!	!	!	!	!	!	!LO:TX:t=P:problem=kreska pseudotaktowa:mod=	!	!	!	!	!
!	!	!	!	!	!	!LO:TX:t=P:problem=łuczek nad nutą:mod=	!	!	!	!	!
.	.	.	.	.	.	4e\	.	.	.	.	.
=27-	=27-	=27-	=27-	=27-	=27-	=27-	=27-	=27-	=27-	=27-	=27-
!LO:MO:mod=1E@	!	!	!LO:TX:t=P:problem=kreska pseudotaktowa:mod=	!	!	!	!	!	!	!	!
1ryy	.	.	1G	-nae	-nae	4g\	.	.	2dd\]	.	.
.	.	.	.	.	.	4f\	.	.	.	.	.
!	!	!	!	!	!	!	!	!	!LO:SIC:s=[2cc	!	!
.	.	.	.	.	.	4e\	.	.	[2ccn\	.	.
!	!	!	!	!	!	!LO:TX:t=P:problem=kreska pseudotaktowa:mod=	!	!	!	!	!
.	.	.	.	.	.	4c\	.	.	.	.	.
=28-	=28-	=28-	=28-	=28-	=28-	=28-	=28-	=28-	=28-	=28-	=28-
!LO:LB:g=original	!	!	!	!	!	!	!	!	!	!	!
!LO:TX:t=P:problem=kreska pseudotaktowa:mod=	!	!	!LO:TX:t=P:problem=kreska pseudotaktowa:mod=	!	!	!LO:TX:t=P:problem=kreska pseudotaktowa:mod=	!	!	!	!	!
1D	[glo]-	.	1A	glo-	glo-	1f	.	.	2ccn\]	.	.
!	!	!	!	!	!	!	!	!	!LO:TX:t=P:problem=kreska pseudotaktowa:mod=	!	!
.	.	.	.	.	.	.	.	.	2b\	.	.
=29-	=29-	=29-	=29-	=29-	=29-	=29-	=29-	=29-	=29-	=29-	=29-
!	!	!	!LO:TX:t=P:problem=kreska pseudotaktowa:mod=	!	!	!	!	!	!	!	!
2C/	.	.	1E	.	.	2e\	-nae	-nae	4cc\	.	.
.	.	.	.	.	.	.	.	.	4g\	.	.
!LO:TX:t=P:problem=kreska pseudotaktowa:między nutą a kropką:mod=	!	!	!	!	!	!	!	!	!	!	!
[2AA/	.	.	.	.	.	[2e\	glo-	glo-	4a\	.	.
!	!	!	!	!	!	!	!	!	!LO:TX:t=P:problem=kreska pseudotaktowa:mod=	!	!
.	.	.	.	.	.	.	.	.	4b\	.	.
=30-	=30-	=30-	=30-	=30-	=30-	=30-	=30-	=30-	=30-	=30-	=30-
!	!	!	!LO:TX:t=P:problem=kreska pseudotaktowa:mod=	!	!	!	!	!	!	!	!
4AA/]	.	.	1E	.	-ri-	4e\]	.	.	4cc\	.	.
4BB/	.	.	.	.	.	4d\	.	.	4dd\	.	.
4C/	.	.	.	.	.	4c\	.	.	4ee\	.	.
!LO:TX:t=P:problem=kreska pseudotaktowa:mod=	!	!	!	!	!	!LO:TX:t=P:problem=kreska pseudotaktowa:mod=	!	!	!	!	!
4D/	.	.	.	.	.	4A/	.	.	8dd\L	.	.
!	!	!	!	!	!	!	!	!	!LO:TX:t=P:problem=kreska pseudotaktowa:mod=	!	!
.	.	.	.	.	.	.	.	.	8cc\J	.	.
=31-	=31-	=31-	=31-	=31-	=31-	=31-	=31-	=31-	=31-	=31-	=31-
!	!	!	!LO:TX:t=P:problem=kreska pseudotaktowa:mod=	!	!	!	!	!	!	!	!
2.E\	.	.	1G#X	-ri ae	.	2.e\	.	.	2.b\	.	.
!LO:TX:t=P:problem=kreska pseudotaktowa:mod=	!	!	!	!	!	!LO:TX:t=P:problem=kreska pseudotaktowa:mod=	!	!	!LO:TX:t=P:problem=kreska pseudotaktowa:mod=	!	!
4E\	-ri-	-ri-	.	.	.	4e\	-ri-	-ri-	4b\	-ri-	-ri-
=32-	=32-	=32-	=32-	=32-	=32-	=32-	=32-	=32-	=32-	=32-	=32-
!LO:TX:t=P:problem=kreska pseudotaktowa:mod=	!	!	!LO:TX:t=P:problem=brak źródła-urwana kartka	!	!	!LO:TX:t=P:problem=kreska pseudotaktowa:mod=	!	!	!LO:TX:t=P:problem=kreska pseudotaktowa:mod=	!	!
!	!	!	!LO:MO:mod=1A@	!	!	!	!	!	!	!	!
1AA	-ae	-ae,	1ryy	.	-ae,	1e	-ae	-ae,	1cc	-ae	-ae,
!	!	!	!LO:LB:g=original	!	!	!	!	!	!	!	!
=33-	=33-	=33-	=33-	=33-	=33-	=33-	=33-	=33-	=33-	=33-	=33-
!LO:TX:a:B:t=3.:mod=	!	!	!LO:TX:t=P:problem=kreska pseudotaktowa:mod=	!	!	!	!	!	!	!	!
!	!	!	!LO:SIC:v:s=1D	!	!	!	!	!	!	!	!
0r	.	.	1E	Pa-	Pa-	2d\	Pa-	Pa-	0r	.	.
!	!	!	!	!	!	!LO:TX:t=P:problem=kreska pseudotaktowa:między nutą a kropką:mod=	!	!	!	!	!
.	.	.	.	.	.	[2f\	-ter	-ter	.	.	.
=34-	=34-	=34-	=34-	=34-	=34-	=34-	=34-	=34-	=34-	=34-	=34-
!	!	!	!LO:TX:t=P:problem=kreska pseudotaktowa:mod=	!	!	!	!	!	!	!	!
.	.	.	1F	-ter	-ter	4f\]	.	.	.	.	.
.	.	.	.	.	.	4g\	ſu-	su-	.	.	.
!	!	!	!	!	!	!LO:TX:t=P:problem=kreska pseudotaktowa:między nutą a kropką:mod=	!	!	!	!	!
.	.	.	.	.	.	[2a\	-pre-	-pre-	.	.	.
=35-	=35-	=35-	=35-	=35-	=35-	=35-	=35-	=35-	=35-	=35-	=35-
!LO:TX:t=P:problem=kreska pseudotaktowa:mod=	!	!	!LO:TX:t=P:problem=kreska pseudotaktowa:mod=	!	!	!	!	!	!	!	!
1r	.	.	1F	ſu-	su-	4a\]	.	.	2.a\	Pa-	Pa-
.	.	.	.	.	.	4g\	.	.	.	.	.
!	!	!	!	!	!	!LO:TX:t=P:problem=kreska pseudotaktowa:mod=	!	!	!	!	!
.	.	.	.	.	.	2f\	.	.	.	.	.
!	!	!	!	!	!	!	!	!	!LO:TX:t=P:problem=kreska pseudotaktowa:mod=	!	!
.	.	.	.	.	.	.	.	.	4b\	-ter	.
=36-	=36-	=36-	=36-	=36-	=36-	=36-	=36-	=36-	=36-	=36-	=36-
!LO:TX:t=P:problem=kreska pseudotaktowa:mod=	!	!	!LO:TX:t=P:problem=kreska pseudotaktowa:mod=	!	!	!	!	!	!	!	!
!	!	!	!	!	!	!LO:LB:g=original	!	!	!	!	!
1AA	Pa-	Pa-	1A	-pre-	-pre-	2e\	-mus	-mus	2cc\	ſu-	-ter
!	!	!	!	!	!	!LO:TX:t=P:problem=kreska pseudotaktowa:mod=	!	!	!LO:TX:t=P:problem=kreska pseudotaktowa:mod=	!	!
.	.	.	.	.	.	2a\	Pa-	Pa-	2cc\	.	su-
=37-	=37-	=37-	=37-	=37-	=37-	=37-	=37-	=37-	=37-	=37-	=37-
!	!	!	!LO:TX:t=P:problem=kreska pseudotaktowa:mod=	!	!	!	!	!	!LO:TX:t=P:problem=kreska pseudotaktowa:mod=	!	!
2D\	-ter	-ter	1B-X	.	.	2f\	-ter	-ter	1dd	-pre-	-pre-
!LO:TX:t=P:problem=kreska pseudotaktowa:mod=	!	!	!	!	!	!LO:TX:t=P:problem=kreska pseudotaktowa:mod=	!	!	!	!	!
2E\	ſu-	su-	.	.	.	2g\	ſu-	su-	.	.	.
=38-	=38-	=38-	=38-	=38-	=38-	=38-	=38-	=38-	=38-	=38-	=38-
!	!	!	!	!	!	!	!	!	!LO:LB:g=original	!	!
!LO:TX:t=P:problem=kreska pseudotaktowa:mod=	!	!	!LO:TX:t=P:problem=kreska pseudotaktowa:mod=	!	!	!	!	!	!	!	!
1F	-pre-	-pre-	1A	-mus	-mus	2a\	-pre-	-pre-	2cc\	-mus	-mus
!	!	!	!	!	!	!LO:TX:t=P:problem=kreska pseudotaktowa:mod=	!	!	!LO:TX:t=P:problem=kreska pseudotaktowa:mod=	!	!
.	.	.	.	.	.	2d\	-mus	-mus	2dd\	e-	e-
=39-	=39-	=39-	=39-	=39-	=39-	=39-	=39-	=39-	=39-	=39-	=39-
!LO:SIC:s=2E	!	!	!LO:TX:t=P:problem=kreska pseudotaktowa:mod=	!	!	!	!	!	!	!	!
2E,\	-mus,	-mus	1Gny	.	.	2.e\	e-	e-	2b\	.	.
!LO:TX:t=P:problem=kreska pseudotaktowa:między nutą a kropką:mod=	!	!	!	!	!	!	!	!	!LO:TX:t=P:problem=kreska pseudotaktowa:między nutą a kropką:mod=	!	!
[2C/	e-	e-	.	.	.	.	.	.	[2ee\	.	.
!	!	!	!	!	!	!LO:TX:t=P:problem=kreska pseudotaktowa:mod=	!	!	!	!	!
.	.	.	.	.	.	4f\	.	.	.	.	.
=40-	=40-	=40-	=40-	=40-	=40-	=40-	=40-	=40-	=40-	=40-	=40-
!	!	!	!LO:TX:t=P:problem=kreska pseudotaktowa:mod=	!	!	!	!	!	!	!	!
4C/]	.	.	1E	e-	e-	4g\	.	.	4ee\]	.	.
4D/	.	.	.	.	.	4f\	.	.	4dd\	.	.
4E/	.	.	.	.	.	4g\	.	.	4cc\	.	.
!LO:TX:t=P:problem=kreska pseudotaktowa:mod=	!	!	!	!	!	!LO:TX:t=P:problem=kreska pseudotaktowa:mod=	!	!	!LO:TX:t=P:problem=kreska pseudotaktowa:mod=	!	!
4C/	.	.	.	.	.	4e\	.	.	4b\	.	.
=41-	=41-	=41-	=41-	=41-	=41-	=41-	=41-	=41-	=41-	=41-	=41-
!	!	!	!LO:TX:t=P:problem=kreska pseudotaktowa:mod=	!	!	!	!	!	!LO:TX:t=P:problem=kreska pseudotaktowa:mod=	!	!
4D\	.	.	1F	.	.	4a\	.	.	1a	.	.
4E\	.	.	.	.	.	4g\	.	.	.	.	.
[2F	.	.	.	.	.	4f\	.	.	.	.	.
!	!	!	!	!	!	!LO:TX:t=P:problem=kreska pseudotaktowa:mod=	!	!	!	!	!
.	.	.	.	.	.	4e\	.	.	.	.	.
=42-	=42-	=42-	=42-	=42-	=42-	=42-	=42-	=42-	=42-	=42-	=42-
!	!	!	!LO:TX:t=P:problem=kreska pseudotaktowa:mod=	!	!	!	!	!	!	!	!
2F]	.	.	1G	.	.	2d\	.	.	2b\	.	.
!LO:LB:g=original	!	!	!	!	!	!	!	!	!	!	!
!LO:TX:t=P:problem=kreska pseudotaktowa:mod=	!	!	!	!	!	!LO:TX:t=P:problem=kreska pseudotaktowa:mod=	!	!	!LO:TX:t=P:problem=kreska pseudotaktowa:mod=	!	!
2E\	.	.	.	.	.	2e\	.	.	2cc#X\	.	.
=43-	=43-	=43-	=43-	=43-	=43-	=43-	=43-	=43-	=43-	=43-	=43-
[1D	.	.	[1F	.	.	[1f	.	.	[1dd	.	.
=44-	=44-	=44-	=44-	=44-	=44-	=44-	=44-	=44-	=44-	=44-	=44-
2D]	.	.	2F]	.	.	2f]	.	.	2dd]	.	.
!LO:TX:t=P:problem=kreska pseudotaktowa:mod=	!	!	!LO:TX:t=P:problem=kreska pseudotaktowa:mod=	!	!	!LO:TX:t=P:problem=kreska pseudotaktowa:mod=	!	!	!LO:TX:t=P:problem=kreska pseudotaktowa:mod=	!	!
2D\	-di-	-di-	2F/	-di-	-di-	2d\	-di-	-di-	2dd\	-di-	-di-
=45-	=45-	=45-	=45-	=45-	=45-	=45-	=45-	=45-	=45-	=45-	=45-
1AA;>l	-dit	-dit.	1E;>l	-dit	-dit.	1e;>l	-dit	-dit.	1cc#X;>l	-dit	-dit.
!	!	!	!LO:LB:g=original	!	!	!LO:LB:g=original	!	!	!	!	!
=46||-	=46||-	=46||-	=46||-	=46||-	=46||-	=46||-	=46||-	=46||-	=46||-	=46||-	=46||-
*M3/2	*	*	*M3/2	*	*	*M3/2	*	*	*M3/2	*	*
2D\	Me-	Me-	2d\	Me-	Me-	2f\	Me-	Me-	2a\	Me-	Me-
2C#X\	-men-	-men-	2A\	-men-	-men-	2e\	-men-	-men-	2a\	-men-	-men-
!LO:TX:t=P:problem=kreska pseudotaktowa:mod=	!	!	!LO:TX:t=P:problem=kreska pseudotaktowa:mod=	!	!	!LO:TX:t=P:problem=kreska pseudotaktowa:mod=	!	!	!LO:TX:t=P:problem=kreska pseudotaktowa:mod=	!	!
2D\	-to	-to,	2d\	-to	-to,	2f\	-to	-to,	2a\	-to	-to,
=47-	=47-	=47-	=47-	=47-	=47-	=47-	=47-	=47-	=47-	=47-	=47-
1GG	re-	re-	1d	re-	re-	1f	re-	re-	1b-X	re-	re-
!LO:TX:t=P:problem=kreska pseudotaktowa:mod=	!	!	!LO:TX:t=P:problem=kreska pseudotaktowa:mod=	!	!	!LO:TX:t=P:problem=kreska pseudotaktowa:mod=	!	!	!LO:TX:t=P:problem=kreska pseudotaktowa:mod=	!	!
2Cny/	-rum	-rum	2c\	-rum	-rum	2e\	-rum	-rum	2g\	-rum	-rum
=48-	=48-	=48-	=48-	=48-	=48-	=48-	=48-	=48-	=48-	=48-	=48-
2.F\	Con-	Con-	2.c\	Con-	Con-	2.f\	Con-	Con-	2.a\	Con-	Con-
4F\	-di-	-di-	4c\	-di-	-di-	4f\	-di-	-di-	4a\	-di-	-di-
!LO:TX:t=P:problem=kreska pseudotaktowa:mod=	!	!	!LO:TX:t=P:problem=kreska pseudotaktowa:mod=	!	!	!LO:TX:t=P:problem=kreska pseudotaktowa:mod=	!	!	!LO:TX:t=P:problem=kreska pseudotaktowa:mod=	!	!
2F\	-tor	-tor,	2c\	-tor	-tor,	2f\	-tor	-tor,	2a\	-tor	-tor,
!	!	!	!	!	!	!	!	!	!LO:LB:g=original	!	!
=49-	=49-	=49-	=49-	=49-	=49-	=49-	=49-	=49-	=49-	=49-	=49-
2A\	no-	No-	2A\	no-	No-	2e\	no-	No-	2ccny\	no-	No-
!	!	!	!LO:SIC:s=2B	!	!	!	!	!	!LO:SIC:s=2b	!	!
2G\	-stri	-stri	2Bny\,	-stri	-stri	2e\	-stri	-stri	2bn\	-stri	-stri
!LO:TX:t=P:problem=kreska pseudotaktowa:mod=	!	!	!LO:TX:t=P:problem=kreska pseudotaktowa:mod=	!	!	!LO:TX:t=P:problem=kreska pseudotaktowa:mod=	!	!	!LO:TX:t=P:problem=kreska pseudotaktowa:mod=	!	!
2A\	quod	quod	2A\	quod	quod	2e\	quod	quod	2cc\	quod	quod
=50-	=50-	=50-	=50-	=50-	=50-	=50-	=50-	=50-	=50-	=50-	=50-
1F	o-	o-	1A	o-	o-	1f	o-	o-	1cc	o-	o-
!LO:TX:t=P:problem=kreska pseudotaktowa:mod=	!	!	!LO:TX:t=P:problem=kreska pseudotaktowa:mod=	!	!	!LO:TX:t=P:problem=kreska pseudotaktowa:mod=	!	!	!LO:TX:t=P:problem=kreska pseudotaktowa:mod=	!	!
!LO:SIC:s=[2D	!	!	!LO:SIC:s=[2A	!	!	!LO:SIC:s=[2f	!	!	!LO:SIC:s=[2dd	!	!
2D\	-lim	-lim	2A\	-lim	-lim	2f\	-lim	-lim	2dd\	-lim	-lim
=51-	=51-	=51-	=51-	=51-	=51-	=51-	=51-	=51-	=51-	=51-	=51-
!	!	!	!	!	!	!LO:TX:t=P:problem=łuczek nad nutą:mod=	!	!	!LO:TX:t=P:problem=kreska nad nutą:mod=	!	!
!LO:SIC:s=2D]	!	!	!LO:SIC:s=2A]	!	!	!LO:SIC:s=2f]	!	!	!LO:SIC:s=2dd]	!	!
2D\	cor-	.	2A\	.	.	2f\	.	.	2dd\	.	.
2.E\	-po-	cor-	2A\	Cor-	cor-	2.e\	cor-	cor-	2.b\	cor-	cor-
!	!	!	!LO:TX:t=P:problem=kreska pseudotaktowa:mod=	!	!	!	!	!	!	!	!
.	.	.	2G#X/	-po-	-po-	.	.	.	.	.	.
!LO:TX:t=P:problem=kreska pseudotaktowa:mod=	!	!	!	!	!	!LO:TX:t=P:problem=kreska pseudotaktowa:mod=	!	!	!LO:TX:t=P:problem=kreska pseudotaktowa:mod=	!	!
4E\	.	-po-	.	.	.	4e\	-po-	-po-	4b\	-po-	-po-
!LO:LB:g=original	!	!	!	!	!	!	!	!	!	!	!
=52-	=52-	=52-	=52-	=52-	=52-	=52-	=52-	=52-	=52-	=52-	=52-
!	!	!	!	!	!	!	!	!	!LO:N:vis=1	!	!
!LO:TX:t=P:problem=kreska pseudotaktowa:mod=	!	!	!LO:TX:t=P:problem=kreska pseudotaktowa:mod=	!	!	!LO:TX:t=P:problem=kreska pseudotaktowa:mod=	!	!	!LO:TX:t=P:problem=kreska pseudotaktowa:mod=	!	!
1.AA	-ris	-ris,	1.A	-ris	-ris,	1.e	-ris	-ris,	1.cc#X	-ris	-ris,
=53-	=53-	=53-	=53-	=53-	=53-	=53-	=53-	=53-	=53-	=53-	=53-
2F\	ſa-	sa-	2A\	ſa-	sa-	2f\	ſa-	sa-	2cc\	sa-	sa-
2F\	-cra-	-cra-	2B\	-cra-	-cra-	2d\	-cra-	-cra-	2dd\	-cra-	-cra-
!LO:TX:t=P:problem=kreska pseudotaktowa:mod=	!	!	!LO:SIC:s=4c	!	!	!LO:TX:t=P:problem=kreska pseudotaktowa:mod=	!	!	!LO:TX:t=P:problem=kreska pseudotaktowa:mod=	!	!
2E\	-to	-ta	4c\,	-to	-to	2g\	-to	-ta	2ee\	-to	-ta
.	.	.	4c\	ab	ab	.	.	.	.	.	.
!	!	!	!LO:LB:g=original	!	!	!LO:LB:g=original	!	!	!	!	!
=54-	=54-	=54-	=54-	=54-	=54-	=54-	=54-	=54-	=54-	=54-	=54-
2D\	ab	ab	1d	al-	al-	2f\	ab	ab	2a\	ab,	ab
2D\	al-	al-	.	.	.	2f\	al-	al-	2a\	al-	al-
!LO:TX:t=P:problem=kreska pseudotaktowa:mod=	!	!	!LO:TX:t=P:problem=kreska pseudotaktowa:mod=	!	!	!LO:TX:t=P:problem=kreska pseudotaktowa:mod=	!	!	!LO:TX:t=P:problem=kreska pseudotaktowa:mod=	!	!
2D\	-vo	-vo	2d\	-vo	-vo	2f\	-vo	-vo	2b\	-vo	-vo
=55-	=55-	=55-	=55-	=55-	=55-	=55-	=55-	=55-	=55-	=55-	=55-
2.C/	vir-	Vir-	2.e\	Vir-	Vir-	2.e\	Vir-	Vir-	2.cc\	Vir-	Vir-
4C/	-gi-	-gi-	4e\	-gi-	-gi-	4f\	-gi-	-gi-	4cc\	-gi-	-gi-
!LO:TX:t=P:problem=kreska pseudotaktowa:mod=	!	!	!LO:TX:t=P:problem=kreska pseudotaktowa:mod=	!	!	!LO:TX:t=P:problem=kreska pseudotaktowa:mod=	!	!	!LO:TX:t=P:problem=kreska pseudotaktowa:mod=	!	!
2C/	-nis	-nis,	2e\	-nis	-nis,	2g\	-nis	-nis,	2cc\	-nis	-nis,
=56-	=56-	=56-	=56-	=56-	=56-	=56-	=56-	=56-	=56-	=56-	=56-
2AA/	na-	Na-	2e\	na-	Na-	2a\	na-	Na-	2cc#X\	na-	Na-
2BB/	-scen-	-scen-	2B\	-scen-	-scen-	2g\	-scen-	-scen-	2dd\	-scen-	-scen-
!LO:TX:t=P:problem=kreska pseudotaktowa:mod=	!	!	!LO:TX:t=P:problem=kreska pseudotaktowa:mod=	!	!	!LO:TX:t=P:problem=kreska pseudotaktowa:mod=	!	!	!LO:TX:t=P:problem=kreska pseudotaktowa:mod=	!	!
2C#X/	-do	-do,	2e\	-do	-do,	2g\	-do	-do,	2ee\	-do	-do,
!	!	!	!	!	!	!	!	!	!LO:LB:g=original	!	!
=57-	=57-	=57-	=57-	=57-	=57-	=57-	=57-	=57-	=57-	=57-	=57-
1D	for-	for-	1d	for-	for-	1f	for-	for-	1ff	for-	for-
!	!	!	!LO:TX:t=P:problem=literę "m" zapisano nad "a":mod=	!	!	!	!	!	!LO:TX:t=P:problem=literę "m" zapisano nad "a":mod=	!	!
!LO:TX:t=P:problem=kreska pseudotaktowa:między nutami połączonymi ligaturą:mod=	!	!	!LO:TX:t=P:problem=kreska pseudotaktowa:mod=	!	!	!LO:TX:t=P:problem=kreska pozioma pseudotaktowa:między nutami połączonymi ligaturą:mod=	!	!	!LO:TX:t=P:problem=kreska pseudotaktowa:mod=	!	!
!	!	!	!LO:SIC:s=[2B	!	!	!	!	!	!LO:SIC:s=[2dd	!	!
[<2GG/	-mam	-mam	2B\	-mam	-mam	[>2g\	-mam	-mam	2dd\	-mam	-mam
=58-	=58-	=58-	=58-	=58-	=58-	=58-	=58-	=58-	=58-	=58-	=58-
!	!	!	!LO:SIC:s=2B]	!	!	!	!	!	!LO:SIC:s=2dd]	!	!
2GG]	.	.	2B\	sum-	.	2g]	.	.	2dd\	.	.
2.AA/	ſum-	sum-	2.A\	.	sum-	2.e\	sum-	sum-	2dd\	sum-	sum-
!	!	!	!	!	!	!	!	!	!LO:TX:t=P:problem=kreska pseudotaktowa:mod=	!	!
.	.	.	.	.	.	.	.	.	2cc#X\	-pse-	-pse-
!LO:TX:t=P:problem=kreska pseudotaktowa:mod=	!	!	!LO:TX:t=P:problem=kreska pseudotaktowa:mod=	!	!	!LO:TX:t=P:problem=kreska pseudotaktowa:mod=	!	!	!	!	!
4AA/	-pse-	-pse-	4A\	-pse-	-pse-	4e\	-pse-	-pse-	.	.	.
=59-	=59-	=59-	=59-	=59-	=59-	=59-	=59-	=59-	=59-	=59-	=59-
1.D	-ris.	-ris.	1.A;>	-ris.	-ris.	1.f#X;>	-ris.	-ris.	1.dd;>	-ris.	-ris.
!LO:LB:g=original	!	!	!	!	!	!	!	!	!	!	!
=60||-	=60||-	=60||-	=60||-	=60||-	=60||-	=60||-	=60||-	=60||-	=60||-	=60||-	=60||-
*M2/2	*	*	*M2/2	*	*	*M2/2	*	*	*M2/2	*	*
*met(C|)	*	*	*met(C|)	*	*	*met(C|)	*	*	*met(C|)	*	*
*mmet(c|)	*	*	*mmet(c|)	*	*	*mmet(c|)	*	*	*mmet(c|)	*	*
!	!	!	!LO:TX:a:B:t=7.:mod=	!	!	!	!	!	!LO:TX:t=P:problem=kreska pseudotaktowa:mod=	!	!
00r	.	.	00r	.	.	00r	.	.	1d	Hunc	Hunc
=61-	=61-	=61-	=61-	=61-	=61-	=61-	=61-	=61-	=61-	=61-	=61-
.	.	.	.	.	.	.	.	.	1f	as-	as-
=62-	=62-	=62-	=62-	=62-	=62-	=62-	=62-	=62-	=62-	=62-	=62-
!	!	!	!	!	!	!	!	!	!LO:TX:t=P:problem=kreska pseudotaktowa:mod=	!	!
.	.	.	.	.	.	.	.	.	1f	-tra	-tra,
=63-	=63-	=63-	=63-	=63-	=63-	=63-	=63-	=63-	=63-	=63-	=63-
!	!	!	!	!	!	!	!	!	!LO:TX:t=P:problem=kreska pseudotaktowa:mod=	!	!
.	.	.	.	.	.	.	.	.	1g	tel-	tel-
=64-	=64-	=64-	=64-	=64-	=64-	=64-	=64-	=64-	=64-	=64-	=64-
!	!	!	!	!	!	!	!	!	!LO:TX:t=P:problem=łuczek nad nutą:mod=	!	!
!	!	!	!	!	!	!LO:TX:t=P:problem=kreska pseudotaktowa:mod=	!LO:TX:t=P:problem=kreska pozioma nad nutą	!LO:TX:t=P:problem=kreska pozioma nad nutą	!LO:TX:t=P:problem=kreska pseudotaktowa:mod=	!	!
00r	.	.	0r	.	.	1A	Hunc	Hunc	1a	.	.
=65-	=65-	=65-	=65-	=65-	=65-	=65-	=65-	=65-	=65-	=65-	=65-
!	!	!	!	!	!	!	!	!	!LO:SIC:s=2d	!	!
.	.	.	.	.	.	2B/	as-	as-	2d,/	-lus	-lus,
!	!	!	!	!	!	!LO:TX:t=P:problem=kreska pseudotaktowa:mod=	!	!	!	!	!
.	.	.	.	.	.	2B/	-tra	-tra,	[2g\	ae-	ae-
*	*	*	*	*	*	*custos:c	*	*	*	*	*
!	!	!	!	!	!	!LO:PB:g=original	!	!	!	!	!
=66-	=66-	=66-	=66-	=66-	=66-	=66-	=66-	=66-	=66-	=66-	=66-
!	!	!	!	!	!	!LO:TX:t=P:problem=brak źródła-urwana kartka	!	!	!	!	!
!	!	!	!	!	!	!LO:MO:mod=1c#@	!	!	!	!	!
.	.	.	1r	.	.	1ryy	.	[tel-	2g\]	.	.
!	!	!	!	!	!	!	!	!	!LO:TX:t=P:problem=kreska pseudotaktowa:mod=	!	!
.	.	.	.	.	.	.	.	.	2e/	.	.
=67-	=67-	=67-	=67-	=67-	=67-	=67-	=67-	=67-	=67-	=67-	=67-
!	!	!	!LO:TX:t=P:problem=kreska pseudotaktowa:mod=	!	!	!LO:MO:mod=1d@	!	!	!	!	!
.	.	.	1D	Hunc	Hunc	1ryy	.	.	4f/	.	.
.	.	.	.	.	.	.	.	.	4g/	.	.
.	.	.	.	.	.	.	.	.	4f/	.	.
!	!	!	!	!	!	!	!	!	!LO:TX:t=P:problem=kreska pseudotaktowa:mod=	!	!
.	.	.	.	.	.	.	.	.	4e/	.	.
*	*	*	*	*	*	*	*	*	*custos:d	*	*
!	!	!	!	!	!	!	!	!	!LO:PB:g=original	!	!
=68-	=68-	=68-	=68-	=68-	=68-	=68-	=68-	=68-	=68-	=68-	=68-
!	!	!	!LO:TX:t=P:problem=kreska pseudotaktowa:mod=	!	!	!	!	!	!LO:TX:t=P:problem=ogonki nut są niewidoczne z powodu ubytku w karcie:mod=	!	!
0r	.	.	1F	as-	as-	2A/	us	-lus,	4d/	.	.
.	.	.	.	.	.	.	.	.	4e/	.	.
.	.	.	.	.	.	4d\	ae-	ae-	4f/	.	.
!	!	!	!	!	!	!	!	!	!LO:TX:t=P:problem=kreska pseudotaktowa:mod=	!	!
!	!	!	!	!	!	!LO:TX:t=P:problem=kreska pseudotaktowa:mod=	!	!	!LO:TX:t=P:problem=brak źródła-urwana kartka	!	!
!	!	!	!	!	!	!	!	!	!LO:MO:mod=4g@	!	!
.	.	.	.	.	.	4e\	.	.	4ryy	.	.
=69-	=69-	=69-	=69-	=69-	=69-	=69-	=69-	=69-	=69-	=69-	=69-
!	!	!	!LO:TX:t=P:problem=kreska pseudotaktowa:mod=	!	!	!	!	!	!	!	!
.	.	.	1F	-tra	-tra,	2fny\	.	.	4a\	.	.
.	.	.	.	.	.	.	.	.	4b\	.	.
!	!	!	!	!	!	!LO:TX:t=P:problem=kreska pseudotaktowa:mod=	!	!	!	!	!
.	.	.	.	.	.	2d\	.	.	4ccny\	.	.
!	!	!	!	!	!	!	!	!	!LO:TX:t=P:problem=kreska pseudotaktowa:mod=	!	!
.	.	.	.	.	.	.	.	.	4a\	.	.
!	!	!	!LO:LB:g=original	!	!	!	!	!	!	!	!
=70-	=70-	=70-	=70-	=70-	=70-	=70-	=70-	=70-	=70-	=70-	=70-
!	!	!	!LO:TX:t=P:problem=kreska pseudotaktowa:mod=	!	!	!	!	!	!	!	!
1r	.	.	1Gny	tel-	tel-	2.g\	.	.	4b\	.	.
.	.	.	.	.	.	.	.	.	4cc\	.	.
.	.	.	.	.	.	.	.	.	[2dd\	.	.
!	!	!	!	!	!	!LO:TX:t=P:problem=kreska pseudotaktowa:mod=	!	!	!	!	!
.	.	.	.	.	.	4f\	.	.	.	.	.
=71-	=71-	=71-	=71-	=71-	=71-	=71-	=71-	=71-	=71-	=71-	=71-
!LO:TX:t=P:problem=kreska pseudotaktowa:mod=	!	!	!LO:TX:t=P:problem=kreska pseudotaktowa:mod=	!	!	!	!	!	!	!	!
!	!	!	!LO:TX:t=P:problem=łuczek na nutą:mod=	!	!	!	!	!	!	!	!
1AA	Hunc	Hunc	1A	.	.	2.e\	-quo-	.	2dd\]	.	.
!	!	!	!	!	!	!	!	!	!LO:TX:t=P:problem=kreska pseudotaktowa:mod=	!	!
.	.	.	.	.	.	.	.	.	2cc#X\	-quo-	-quo-
!	!	!	!	!	!	!LO:TX:t=P:problem=kreska pseudotaktowa:mod=	!	!	!	!	!
.	.	.	.	.	.	4e\	-ra,	-quo-	.	.	.
=72-	=72-	=72-	=72-	=72-	=72-	=72-	=72-	=72-	=72-	=72-	=72-
!	!	!	!LO:TX:t=P:problem=kreska pseudotaktowa:mod=	!	!	!LO:SIC:s=2d	!	!	!LO:TX:t=P:problem=kreska pseudotaktowa:mod=	!	!
2BB/	as-	as-	1D	-lus	-lus,	2d,<\	.	-ra,	1dd	-ra	-ra,
!LO:TX:t=P:problem=kreska pseudotaktowa:mod=	!	!	!	!	!	!	!	!	!	!	!
2BB/	-tra	-tra,	.	.	.	[2g\	tel-	tel-	.	.	.
.	.	.	.	.	.	.	.	.	.	.	.
=73-	=73-	=73-	=73-	=73-	=73-	=73-	=73-	=73-	=73-	=73-	=73-
!LO:TX:t=P:problem=kreska pseudotaktowa:mod=	!	!	!LO:TX:t=P:problem=kreska pseudotaktowa:mod=	!	!	!	!	!	!LO:TX:t=P:problem=kreska pseudotaktowa:mod=	!	!
1C#X	tel-	tel-	1E	ae-	ae-	4g\]	.	.	1r	.	.
.	.	.	.	.	.	4f\	.	.	.	.	.
!	!	!	!	!	!	!LO:TX:t=P:problem=kreska pseudotaktowa:mod=	!	!	!	!	!
.	.	.	.	.	.	2e\	.	.	.	.	.
=74-	=74-	=74-	=74-	=74-	=74-	=74-	=74-	=74-	=74-	=74-	=74-
!LO:TX:t=P:problem=kreska pseudotaktowa:mod=	!	!	!LO:TX:t=P:problem=kreska pseudotaktowa:mod=	!	!	!	!	!	!	!	!
1D	.	.	1F	.	.	4a\	.	.	1a	hunc	Hunc
.	.	.	.	.	.	4g\	.	.	.	.	.
.	.	.	.	.	.	4f\	.	.	.	.	.
!	!	!	!	!	!	!LO:TX:t=P:problem=kreska pseudotaktowa:mod=	!	!	!	!	!
.	.	.	.	.	.	4e\	.	.	.	.	.
=75-	=75-	=75-	=75-	=75-	=75-	=75-	=75-	=75-	=75-	=75-	=75-
!	!	!	!LO:TX:t=P:problem=kreska pseudotaktowa:mod=	!	!	!	!	!	!	!	!
2GG/	-lus	-lus,	1G	.	.	2d\	.	.	2b-X\	as-	as-
.	.	.	.	.	.	.	.	.	.	.	.
!LO:TX:t=P:problem=kreska pseudotaktowa:mod=	!	!	!	!	!	!LO:TX:t=P:problem=kreska pseudotaktowa:mod=	!	!	!LO:TX:t=P:problem=kreska pseudotaktowa:mod=	!	!
2Cny/	ae-	ae-	.	.	.	2e\	.	.	2b-\	-tra	-tra,
.	.	.	.	.	.	.	.	.	.	.	.
=76-	=76-	=76-	=76-	=76-	=76-	=76-	=76-	=76-	=76-	=76-	=76-
!	!	!	!LO:TX:t=P:problem=kreska pseudotaktowa:mod=	!	!	!	!	!	!	!	!
2.FF/	.	.	1F	.	.	2A/	-lus	-lus	4ccny\	tel-	tel-
.	.	.	.	.	.	.	.	.	4a\	.	.
.	.	.	.	.	.	[2d\	ae-	ae-	[2dd\	.	.
!LO:TX:t=P:problem=kreska pseudotaktowa:mod=	!	!	!	!	!	!	!	!	!	!	!
4GG/	.	.	.	.	.	.	.	.	.	.	.
=77-	=77-	=77-	=77-	=77-	=77-	=77-	=77-	=77-	=77-	=77-	=77-
!	!	!	!LO:TX:t=P:problem=kreska pseudotaktowa:mod=	!	!	!	!	!	!	!	!
2.AA/	.	.	1E	.	.	2d\]	.	.	2dd\]	.	.
!	!	!	!	!	!	!LO:TX:t=P:problem=kreska pseudotaktowa:mod=	!	!	!LO:TX:t=P:problem=kreska pseudotaktowa:mod=	!	!
.	.	.	.	.	.	2e\	.	.	2cc#X\	-lus	.
!LO:TX:t=P:problem=kreska pseudotaktowa:mod=	!	!	!	!	!	!	!	!	!	!	!
4AA/	-quo-	-quo-	.	.	.	.	.	.	.	.	.
!	!	!	!	!	!	!LO:LB:g=original	!	!	!	!	!
=78-	=78-	=78-	=78-	=78-	=78-	=78-	=78-	=78-	=78-	=78-	=78-
!LO:TX:t=P:problem=kreska pseudotaktowa:mod=	!	!	!	!	!	!LO:TX:t=P:problem=brak źródła-urwana kartka	!	!	!	!	!
!	!	!	!	!	!	!LO:MO:mod=1f@	!	!	!	!	!
1D	-ra	-ra,	2.D/	.	.	1ryy	.	.	2dd\	.	-lus,
.	.	.	.	.	.	.	.	.	[2a\	ae-	ae-
!	!	!	!LO:TX:t=P:problem=kreska pseudotaktowa:mod=	!	!	!	!	!	!	!	!
.	.	.	4D/	-quo-	-quo-	.	.	.	.	.	.
=79-	=79-	=79-	=79-	=79-	=79-	=79-	=79-	=79-	=79-	=79-	=79-
!	!	!	!LO:TX:t=P:problem=kreska pseudotaktowa:mod=	!	!	!LO:MO:mod=2.e@	!	!	!	!	!
0r	.	.	1E	-ra	-ra,	2.ryy	.	.	4a\]	.	.
!	!	!	!	!	!	!	!	!	!LO:TX:t=P:problem=kreska pseudotaktowa:mod=	!	!
.	.	.	.	.	.	.	.	.	4bny\	.	.
!	!	!	!	!	!	!	!	!	!LO:LB:g=original	!	!
.	.	.	.	.	.	.	.	.	[2ccny\	.	.
!	!	!	!	!	!	!LO:TX:t=P:problem=kreska pseudotaktowa:mod=	!	!	!	!	!
.	.	.	.	.	.	4e\	-quo-	-quo-	.	.	.
=80-	=80-	=80-	=80-	=80-	=80-	=80-	=80-	=80-	=80-	=80-	=80-
!	!	!	!LO:TX:t=P:problem=kreska pseudotaktowa:mod=	!	!	!LO:TX:t=P:problem=kreska pseudotaktowa:mod=	!	!	!	!	!
.	.	.	1G	hunc	Hunc	1d	-ra	-ra,	2ccny\]	.	.
.	.	.	.	.	.	.	.	.	2b\	-quo-	-quo-
.	.	.	.	.	.	.	.	.	.	.	.
=81-	=81-	=81-	=81-	=81-	=81-	=81-	=81-	=81-	=81-	=81-	=81-
!	!	!	!LO:TX:t=P:problem=kreska pseudotaktowa:mod=	!	!	!	!	!	!	!	!
!	!	!	!LO:TX:t=P:problem=łuczek na nutą:mod=	!	!	!	!	!	!LO:TX:t=P:problem=kreska pseudotaktowa:mod=	!	!
1r	.	.	1A	.	.	2r	.	.	1a	-ra	-ra,
!	!	!	!	!	!	!LO:TX:t=P:problem=kreska pseudotaktowa:mod=	!	!	!	!	!
.	.	.	.	.	.	2c\	hunc	Hunc	.	.	.
=82-	=82-	=82-	=82-	=82-	=82-	=82-	=82-	=82-	=82-	=82-	=82-
!	!	!	!LO:TX:t=P:problem=kreska pseudotaktowa:mod=	!	!	!	!	!	!LO:TX:a:B:t=1:mod=	!	!
!	!	!	!	!	!	!	!	!	!LO:N:vis=0r	!	!
2r	.	.	1c	om-	om-	2e\	om-	om-	1r	.	.
!LO:TX:t=P:problem=kreska pseudotaktowa:mod=	!	!	!	!	!	!LO:TX:t=P:problem=kreska pseudotaktowa:mod=	!	!	!	!	!
2C/	hunc	Hunc	.	.	.	2e\	-ne	-ne	.	.	.
=83-	=83-	=83-	=83-	=83-	=83-	=83-	=83-	=83-	=83-	=83-	=83-
!	!	!	!LO:TX:t=P:problem=kreska pseudotaktowa:mod=	!	!	!	!	!	!	!	!
2E\	om-	om-	1c	-ne	-ne	2g\	om-	om-	2r	.	.
!LO:TX:t=P:problem=kreska pseudotaktowa:mod=	!	!	!	!	!	!	!	!	!LO:TX:t=P:problem=kreska pseudotaktowa:mod=	!	!
2E\	-ne	-ne	.	.	.	4e\	-ne	-ne	2g\	hunc	Hunc
!	!	!	!	!	!	!LO:TX:t=P:problem=kreska pseudotaktowa:mod=	!	!	!	!	!
.	.	.	.	.	.	4e\	q(uo)d	quod	.	.	.
=84-	=84-	=84-	=84-	=84-	=84-	=84-	=84-	=84-	=84-	=84-	=84-
!	!	!	!LO:TX:t=P:problem=kreska pseudotaktowa:mod=	!	!	!	!	!	!	!	!
2F\	quod	quod	1c	quod	quod	4a\	Cae-	cae-	2a\	om-	om-
.	.	.	.	.	.	4g\	.	.	.	.	.
!LO:TX:t=P:problem=kreska pseudotaktowa:mod=	!	!	!	!	!	!	!	!	!LO:TX:t=P:problem=kreska pseudotaktowa:mod=	!	!
2F\	.	cae-	.	.	.	4f\	.	.	2a\	-ne	-ne
*custos:G	*	*	*	*	*	*	*	*	*	*	*
!	!	!	!	!	!	!LO:TX:t=P:problem=kreska pseudotaktowa:mod=	!	!	!	!	!
.	.	.	.	.	.	4e\	.	.	.	.	.
=85-	=85-	=85-	=85-	=85-	=85-	=85-	=85-	=85-	=85-	=85-	=85-
!LO:PB:g=original	!	!	!	!	!	!	!	!	!	!	!
!LO:TX:t=P:problem=brak źródła-urwana kartka	!	!	!LO:TX:t=P:problem=kreska pseudotaktowa:mod=	!	!	!	!	!	!	!	!
!LO:MO:mod=4G@	!	!	!LO:TX:t=P:problem=łuczek na nutą:mod=	!	!	!	!	!	!	!	!
1ryy	.	-lo	1B	.	.	2d\	.	.	2b\	q(uo)d	quod
!LO:MO:null:mod=4F@	!	!	!	!	!	!	!	!	!	!	!
.	.	.	.	.	.	.	.	.	.	.	.
!LO:MO:null:mod=4E@	!	!	!	!	!	!	!	!	!LO:TX:t=P:problem=kreska pseudotaktowa:mod=	!	!
.	.	.	.	.	.	[2e\	.	.	2b\	Cae-	cae-
!LO:MO:null:mod=4D@	!	!	!	!	!	!	!	!	!	!	!
.	.	.	.	.	.	.	.	.	.	.	.
!	!	!	!LO:PB:g=original	!	!	!	!	!	!	!	!
=86-	=86-	=86-	=86-	=86-	=86-	=86-	=86-	=86-	=86-	=86-	=86-
!	!	!	!LO:TX:t=P:problem=brak źródła-urwana kartka	!	!	!	!	!	!	!	!
!LO:MO:null:mod=2C@	!	!	!LO:MO:mod=1A@	!	!	!	!	!	!	!	!
1ryy	.	.	1ryy	.	.	2e\]	.	.	2cc\	-lo	-lo
!LO:MO:null:mod=2D@	!	!	!	!	!	!LO:TX:t=P:problem=kreska pseudotaktowa:mod=	!	!	!LO:TX:t=P:problem=kreska pseudotaktowa:mod=	!	!
.	.	sub-	.	.	.	2f#X\	.	.	2a\	sub-	sub-
=87-	=87-	=87-	=87-	=87-	=87-	=87-	=87-	=87-	=87-	=87-	=87-
!LO:MO:null:mod=2GG@	!	!	!LO:MO:mod=1G@	!	!	!	!	!	!	!	!
2ryy	.	-est,	1ryy	.	.	2g\	.	.	2b\	-est	-est,
!LO:TX:t=P:problem=wcześniej zapisane "subest":mod=	!	!	!	!	!	!	!	!	!	!	!
!LO:TX:t=P:problem=kreska pseudotaktowa:mod=	!	!	!	!	!	!LO:TX:t=P:problem=kreska pseudotaktowa:mod=	!	!	!LO:TX:t=P:problem=kreska pseudotaktowa:mod=	!	!
2E\	quod	quod	.	.	.	2a\	.	.	2ee\	quod	quod
=88-	=88-	=88-	=88-	=88-	=88-	=88-	=88-	=88-	=88-	=88-	=88-
!	!	!	!	!	!	!LO:TX:t=P:problem=kreska pseudotaktowa:mod=	!	!	!	!	!
!	!	!	!LO:MO:mod=1A@	!	!	!LO:SIC:s=1f	!	!	!	!	!
4F\	Cae-	cae-	1ryy	.	.	1fn	.	.	4cc\	Cae-	cae-
4E\	.	.	.	.	.	.	.	.	4g\	.	.
4F\	.	.	.	.	.	.	.	.	[2cc\	.	.
!LO:TX:t=P:problem=kreska pseudotaktowa:mod=	!	!	!	!	!	!	!	!	!	!	!
4G\	.	.	.	.	.	.	.	.	.	.	.
=89-	=89-	=89-	=89-	=89-	=89-	=89-	=89-	=89-	=89-	=89-	=89-
!	!	!	!LO:TX:t=P:problem=kreska pseudotaktowa:mod=	!	!	!LO:TX:t=P:problem=kreska pseudotaktowa:mod=	!	!	!	!	!
4A\	.	.	1c	o	-lo	1e	-lo	-lo,	4cc\]	.	.
4G\	.	.	.	.	.	.	.	.	4b\	.	.
4A\	.	.	.	.	.	.	.	.	4cc\	.	.
!LO:TX:t=P:problem=kreska pseudotaktowa:mod=	!	!	!	!	!	!	!	!	!LO:TX:t=P:problem=kreska pseudotaktowa:mod=	!	!
4B\	.	.	.	.	.	.	.	.	4dd\	.	.
=90-	=90-	=90-	=90-	=90-	=90-	=90-	=90-	=90-	=90-	=90-	=90-
4c\	.	.	1c	sub-	sub-	2r	.	.	4ee\	.	.
4B\	.	.	.	.	.	.	.	.	4dd\	.	.
!	!	!	!	!	!	!LO:TX:t=P:problem=kreska pseudotaktowa:mod=	!	!	!	!	!
4A\	.	.	.	.	.	2e\	quod	quod	4cc\	.	.
!LO:TX:t=P:problem=kreska pseudotaktowa:mod=	!	!	!	!	!	!	!	!	!LO:TX:t=P:problem=kreska pseudotaktowa:mod=	!	!
4G\	.	.	.	.	.	.	.	.	4b\	.	.
=91-	=91-	=91-	=91-	=91-	=91-	=91-	=91-	=91-	=91-	=91-	=91-
!	!	!	!	!	!	!LO:LB:g=original	!	!	!	!	!
!	!	!	!LO:TX:t=P:problem=kreska pseudotaktowa:mod=	!	!	!	!	!	!	!	!
2F\	.	.	1c	-est	-est,	4c\	Cae-	cae-	4a\	.	.
.	.	.	.	.	.	4d\	.	.	4b\	.	.
!LO:TX:t=P:problem=kreska pseudotaktowa:mod=	!	!	!	!	!	!	!	!	!LO:TX:t=P:problem=kreska pseudotaktowa:mod=	!	!
2C/	-lo	.	.	.	.	4e\	.	.	[2cc\	-lo	-lo
!	!	!	!	!	!	!LO:TX:t=P:problem=kreska pseudotaktowa:mod=	!	!	!	!	!
.	.	.	.	.	.	4f\	.	.	.	.	.
!	!	!	!	!	!	!	!	!	!LO:LB:g=original	!	!
=92-	=92-	=92-	=92-	=92-	=92-	=92-	=92-	=92-	=92-	=92-	=92-
2.G\	sub-	-lo	1G	ſa-	Sa-	2d\	-lo	-lo	2cc\]	.	.
.	.	.	.	.	.	.	.	.	.	.	.
!	!	!	!	!	!	!LO:TX:t=P:problem=kreska pseudotaktowa:mod=	!	!	!LO:TX:t=P:problem=kreska pseudotaktowa:mod=	!	!
.	.	.	.	.	.	2d\	sub-	sub-	2b\	sub-	sub-
!LO:TX:t=P:problem=kreska pseudotaktowa:mod=	!	!	!	!	!	!	!	!	!	!	!
4G\	-est.	sub-	.	.	.	.	.	.	.	.	.
=93-	=93-	=93-	=93-	=93-	=93-	=93-	=93-	=93-	=93-	=93-	=93-
!LO:TX:t=P:problem=kreska pseudotaktowa:mod=	!	!	!	!	!	!LO:TX:t=P:problem=kreska pseudotaktowa:mod=	!	!	!LO:TX:t=P:problem=kreska pseudotaktowa:mod=	!	!
1C	.	-est,	1G	-lu-	-lu-	1e	-est	-est,	1cc	-est	-est,
.	.	.	.	.	.	.	.	.	.	.	.
.	.	.	.	.	.	.	.	.	.	.	.
=94-	=94-	=94-	=94-	=94-	=94-	=94-	=94-	=94-	=94-	=94-	=94-
!	!	!	!LO:TX:t=P:problem=kreska pseudotaktowa:mod=	!	!	!	!	!	!	!	!
00r	.	.	1c	.	.	2r	.	.	0r	.	.
!	!	!	!	!	!	!LO:TX:t=P:problem=kreska pseudotaktowa:mod=	!	!	!	!	!
.	.	.	.	.	.	2c/	ſa-	Sa-	.	.	.
=95-	=95-	=95-	=95-	=95-	=95-	=95-	=95-	=95-	=95-	=95-	=95-
!	!	!	!	!	!	!LO:TX:t=P:problem=kreska pseudotaktowa:mod=	!	!	!	!	!
.	.	.	1d	-tis	-tis	1f	-lu-	-lu-	.	.	.
.	.	.	.	.	.	.	.	.	.	.	.
=96-	=96-	=96-	=96-	=96-	=96-	=96-	=96-	=96-	=96-	=96-	=96-
!	!	!	!LO:TX:t=P:problem=kreska pseudotaktowa:mod=	!	!	!LO:TX:t=P:problem=kreska pseudotaktowa:mod=	!	!	!LO:TX:t=P:problem=kreska pseudotaktowa:mod=	!	!
.	.	.	1B	au-	au-	1g	.	.	1g	ſa-	Sa-
=97-	=97-	=97-	=97-	=97-	=97-	=97-	=97-	=97-	=97-	=97-	=97-
.	.	.	1c	-cto-	-cto-	4e\	-tis	-tis	1cc	-lu-	-lu-
.	.	.	.	.	.	4e\	au-	au-	.	.	.
!	!	!	!	!	!	!LO:TX:t=P:problem=kreska pseudotaktowa:między nutą a kropką:mod=	!	!	!	!	!
.	.	.	.	.	.	[2a\	-tho-	-cto-	.	.	.
=98-	=98-	=98-	=98-	=98-	=98-	=98-	=98-	=98-	=98-	=98-	=98-
!	!	!	!LO:TX:t=P:problem=kreska pseudotaktowa:mod=	!	!	!	!	!	!	!	!
0r	.	.	1B	.	.	4a\]	.	.	2dd\	-tis	-tis
!	!	!	!	!	!	!LO:SIC:s=4d	!	!	!	!	!
.	.	.	.	.	.	4d\,	-rem,	-rem	.	.	.
!	!	!	!	!	!	!	!	!	!LO:TX:t=P:problem=kreska pseudotaktowa:mod=	!	!
.	.	.	.	.	.	[2g\	no-	no-	2b\	au-	au-
=99-	=99-	=99-	=99-	=99-	=99-	=99-	=99-	=99-	=99-	=99-	=99-
!	!	!	!	!	!	!	!	!	!LO:TX:t=P:problem=kreska pseudotaktowa:mod=	!	!
.	.	.	1A	-rem	-rem	2g\]	.	.	1cc	-tho-	-cto-
.	.	.	.	.	.	.	.	.	.	.	.
!	!	!	!	!	!	!LO:TX:t=P:problem=kreska pseudotaktowa:mod=	!	!	!	!	!
.	.	.	.	.	.	2f#X\	.	.	.	.	.
=100-	=100-	=100-	=100-	=100-	=100-	=100-	=100-	=100-	=100-	=100-	=100-
!	!	!	!LO:TX:t=P:problem=kreska pseudotaktowa:mod=	!	!	!	!	!	!	!	!
2r	.	.	1G	.	.	2g\	-vae	-vae,	2b\	-rem	-rem,
!LO:TX:t=P:problem=kreska pseudotaktowa:mod=	!	!	!	!	!	!LO:TX:t=P:problem=kreska pseudotaktowa:mod=	!	!	!LO:TX:t=P:problem=kreska pseudotaktowa:mod=	!	!
2C/	ſa	Sa-	.	.	.	2e\	sa-	sa-	2cc\	au-	au-
=101-	=101-	=101-	=101-	=101-	=101-	=101-	=101-	=101-	=101-	=101-	=101-
!LO:LB:g=original	!	!	!	!	!	!	!	!	!	!	!
!LO:TX:t=P:problem=brak źródła-urwana kartka	!	!	!LO:TX:t=P:problem=kreska pseudotaktowa:mod=	!	!	!	!	!	!LO:TX:t=P:problem=kreska pseudotaktowa:mod=	!	!
!LO:MO:mod=2F@	!	!	!	!	!	!	!	!	!	!	!
1ryy	.	-lu-	1A	.	.	4c/	-lu-	-lu-	1a	-tho-	-tho-
.	.	.	.	.	.	4B/	.	.	.	.	.
!LO:MO:null:mod=2F@	!	!	!	!	!	!	!	!	!	!	!
.	.	-tis	.	.	.	4c/	.	.	.	.	.
!	!	!	!	!	!	!LO:TX:t=P:problem=kreska pseudotaktowa:mod=	!	!	!	!	!
.	.	.	.	.	.	4d/	.	.	.	.	.
=102-	=102-	=102-	=102-	=102-	=102-	=102-	=102-	=102-	=102-	=102-	=102-
!	!	!	!	!	!	!LO:SIC:s=2e	!	!	!	!	!
2E\	au-	au-	1E	no-	no-	2e,\	-tis	-tis	2g\	-rem	-rem,
.	.	.	.	.	.	.	.	.	.	.	.
!	!	!	!	!	!	!LO:TX:t=P:problem=kreska pseudotaktowa:między nutą a kropką:mod=	!	!	!	!	!
[2C/	-cto-	-cto-	.	.	.	[2e\	no-	no-	[2cc\	ſa-	sa-
.	.	.	.	.	.	.	.	.	.	.	.
=103-	=103-	=103-	=103-	=103-	=103-	=103-	=103-	=103-	=103-	=103-	=103-
4C/]	.	.	1E	-vae	-vae,	4e\]	.	.	2cc\]	.	.
*	*	*	*	*	*	*custos:d	*	*	*	*	*
!	!	!	!	!	!	!LO:LB:g=original	!	!	!	!	!
4BB/	.	.	.	.	.	4d\	.	.	.	.	.
!	!	!	!	!	!	!	!	!	!LO:TX:t=P:problem=kreska pseudotaktowa:mod=	!	!
4C/	-rem	-rem	.	.	.	4c\	.	.	2cc\	-lu-	-lu-
!LO:TX:t=P:problem=kreska pseudotaktowa:mod=	!	!	!	!	!	!LO:TX:t=P:problem=kreska pseudotaktowa:mod=	!	!	!	!	!
4D/	.	.	.	.	.	4A/	.	.	.	.	.
=104-	=104-	=104-	=104-	=104-	=104-	=104-	=104-	=104-	=104-	=104-	=104-
!LO:TX:t=P:problem=kreska pseudotaktowa:mod=	!	!	!LO:TX:t=P:problem=# above:mod=	!	!	!LO:TX:t=P:problem=kreska pseudotaktowa:mod=	!	!	!	!	!
1E	no-	no-	1G#	.	.	1e	.	.	2b\	-tis	-tis
.	.	.	.	.	.	.	.	.	.	.	.
!	!	!	!	!	!	!	!	!	!LO:TX:t=P:problem=kreska pseudotaktowa:mod=	!	!
.	.	.	.	.	.	.	.	.	2b\	no-	no-
.	.	.	.	.	.	.	.	.	.	.	.
=105-	=105-	=105-	=105-	=105-	=105-	=105-	=105-	=105-	=105-	=105-	=105-
!	!	!	!	!	!	!	!	!	!LO:TX:a:B:t=2:mod=	!	!
!LO:TX:t=P:problem=kreska pseudotaktowa:mod=	!	!	!LO:TX:t=P:problem=kreska pseudotaktowa:mod=	!	!	!LO:TX:t=P:problem=kreska pseudotaktowa:mod=	!	!	!LO:TX:t=P:problem=kreska pseudotaktowa:mod=	!	!
1AA	-vae	-vae,	1A	.	.	1e	-vae	-vae,	0a	-vae	-vae
.	.	.	.	.	.	.	.	.	.	.	.
=106-	=106-	=106-	=106-	=106-	=106-	=106-	=106-	=106-	=106-	=106-	=106-
0r	.	.	1D	no-	No-	2d\	no-	No-	.	.	.
!	!	!	!	!	!	!LO:TX:t=P:problem=kreska pseudotaktowa:między nutą a kropką:mod=	!	!	!	!	!
.	.	.	.	.	.	[2fny\	-vo	-vo	.	.	.
=107-	=107-	=107-	=107-	=107-	=107-	=107-	=107-	=107-	=107-	=107-	=107-
!	!	!	!LO:TX:t=P:problem=kreska pseudotaktowa:mod=	!	!	!	!	!	!	!	!
.	.	.	1F	-vo	-vo	4fny\]	.	.	1r	.	.
.	.	.	.	.	.	4g\	ſa-	sa-	.	.	.
.	.	.	.	.	.	[2a\	-lu-	-lu-	.	.	.
!	!	!	!LO:LB:g=original	!	!	!	!	!	!	!	!
=108-	=108-	=108-	=108-	=108-	=108-	=108-	=108-	=108-	=108-	=108-	=108-
1r	.	.	1F	sa-	sa-	2a\]	.	.	1a	no-	No-
.	.	.	.	.	.	.	.	.	.	.	.
!	!	!	!	!	!	!LO:TX:t=P:problem=kreska pseudotaktowa:mod=	!	!	!	!	!
.	.	.	.	.	.	2f\	-lat	-tat	.	.	.
=109-	=109-	=109-	=109-	=109-	=109-	=109-	=109-	=109-	=109-	=109-	=109-
!	!	!	!	!	!	!	!	!	!LO:LB:g=original	!	!
!	!	!	!LO:TX:t=P:problem=kreska pseudotaktowa:mod=	!	!	!	!	!	!	!	!
2r	.	.	1A	-lu-	-lu-	4e\	Can-	can-	2.cc\	-vo	-vo
.	.	.	.	.	.	4d\	.	.	.	.	.
!LO:TX:t=P:problem=kreska pseudotaktowa:mod=	!	!	!	!	!	!	!	!	!	!	!
2AA/	no-	No-	.	.	.	4c\	.	.	.	.	.
!	!	!	!	!	!	!LO:TX:t=P:problem=kreska pseudotaktowa:mod=	!	!	!LO:TX:t=P:problem=kreska pseudotaktowa:mod=	!	!
.	.	.	.	.	.	4B/	.	.	4dd\	sa-	sa-
=110-	=110-	=110-	=110-	=110-	=110-	=110-	=110-	=110-	=110-	=110-	=110-
!	!	!	!	!	!	!	!	!	!LO:TX:t=P:problem=kreska pseudotaktowa:mod=	!	!
2C/	-vo	-vo	1A	-tant	-tat	2A/	.	.	1ee	-lu-	-lu-
.	.	.	.	.	.	.	.	.	.	.	.
!LO:TX:t=P:problem=kreska pseudotaktowa:mod=	!	!	!	!	!	!	!	!	!	!	!
2C/	sa-	sa-	.	.	.	4a\	.	.	.	.	.
!	!	!	!	!	!	!LO:TX:t=P:problem=kreska pseudotaktowa:mod=	!	!	!	!	!
.	.	.	.	.	.	4g\	.	.	.	.	.
=111-	=111-	=111-	=111-	=111-	=111-	=111-	=111-	=111-	=111-	=111-	=111-
!	!	!	!LO:TX:t=P:problem=kreska pseudotaktowa:mod=	!	!	!	!	!	!LO:TX:t=P:problem=kreska pseudotaktowa:mod=	!	!
2D\	-lu-	-lu-	1B-X	.	.	2f\	.	.	1dd	.	.
!LO:TX:t=P:problem=kreska pseudotaktowa:mod=	!	!	!	!	!	!	!	!	!	!	!
2E\	-tant	-tat	.	.	.	[2e\	.	.	.	.	.
.	.	.	.	.	.	.	.	.	.	.	.
=112-	=112-	=112-	=112-	=112-	=112-	=112-	=112-	=112-	=112-	=112-	=112-
!LO:SIC:s=2.F	!	!	!	!	!	!	!	!	!	!	!
2.F\,	Can-	can-	1A	.	.	2e\]	.	.	2cc\	-tis	-tat
!	!	!	!	!	!	!LO:TX:t=P:problem=kreska pseudotaktowa:mod=	!	!	!LO:TX:t=P:problem=kreska pseudotaktowa:mod=	!	!
.	.	.	.	.	.	2d\	-ti-	-ti-	2dd\	Can-	can-
!LO:TX:t=P:problem=kreska pseudotaktowa:mod=	!	!	!	!	!	!	!	!	!	!	!
4F\	-ti-	-ti-	.	.	.	.	.	.	.	.	.
=113-	=113-	=113-	=113-	=113-	=113-	=113-	=113-	=113-	=113-	=113-	=113-
!	!	!	!LO:TX:t=P:problem=kreska pseudotaktowa:mod=	!	!	!	!	!	!	!	!
2E\	-co	-co,	1Gny	.	.	2e\	-co	-co,	2b\	.	.
!LO:TX:t=P:problem=kreska pseudotaktowa:między nutą a kropką:mod=	!	!	!	!	!	!	!	!	!LO:TX:t=P:problem=kreska pseudotaktowa:między nutą a kropką:mod=	!	!
[2E\	Can-	can-	.	.	.	[2B/	sa-	sa-	[2ee\	.	.
.	.	.	.	.	.	.	.	.	.	.	.
=114-	=114-	=114-	=114-	=114-	=114-	=114-	=114-	=114-	=114-	=114-	=114-
4E\]	.	.	1E	Can-	can-	2B/]	.	.	4ee\]	.	.
4D/	.	.	.	.	.	.	.	.	4b\	.	.
!	!	!	!	!	!	!LO:TX:t=P:problem=kreska pseudotaktowa:między nutą a kropką:mod=	!	!	!	!	!
4C/	.	.	.	.	.	[2c/	-lu-	-lu-	4ee\	.	.
!LO:TX:t=P:problem=kreska pseudotaktowa:mod=	!	!	!	!	!	!	!	!	!LO:TX:t=P:problem=kreska pseudotaktowa:mod=	!	!
4BB/	.	.	.	.	.	.	.	.	4dd\	.	.
=115-	=115-	=115-	=115-	=115-	=115-	=115-	=115-	=115-	=115-	=115-	=115-
!LO:LB:g=original	!	!	!	!	!	!	!	!	!	!	!
!	!	!	!LO:TX:t=P:problem=kreska pseudotaktowa:mod=	!	!	!	!	!	!	!	!
2AA/	.	.	1F	.	.	4c/]	.	.	2cc\	.	.
.	.	.	.	.	.	4c/	-tat	-tat	.	.	.
!	!	!	!	!	!	!	!	!	!LO:TX:t=P:problem=kreska pseudotaktowa:między nutą a kropką:mod=	!	!
[2BB	.	.	.	.	.	[2d/	Can-	can-	[2b\	.	.
.	.	.	.	.	.	.	.	.	.	.	.
=116-	=116-	=116-	=116-	=116-	=116-	=116-	=116-	=116-	=116-	=116-	=116-
2BB]	.	.	1G	.	.	2d/]	.	.	4b\]	.	.
.	.	.	.	.	.	.	.	.	4a\	.	.
!LO:TX:t=P:problem=kreska pseudotaktowa:mod=	!	!	!	!	!	!LO:TX:t=P:problem=kreska pseudotaktowa:mod=	!	!	!	!	!
2C#X/	.	.	.	.	.	2e\	.	.	4g\	.	.
!	!	!	!	!	!	!	!	!	!LO:TX:t=P:problem=kreska pseudotaktowa:mod=	!	!
.	.	.	.	.	.	.	.	.	4e/	.	.
=117-	=117-	=117-	=117-	=117-	=117-	=117-	=117-	=117-	=117-	=117-	=117-
[1D	.	.	[1F	.	.	4f\	.	.	4a\	.	.
.	.	.	.	.	.	4g\	.	.	8b\L	.	.
.	.	.	.	.	.	.	.	.	8cc\J	.	.
.	.	.	.	.	.	4a\	.	.	[2dd\	.	.
!	!	!	!	!	!	!LO:TX:t=P:problem=kreska pseudotaktowa:mod=	!	!	!	!	!
.	.	.	.	.	.	4g\	.	.	.	.	.
!	!	!	!	!	!	!LO:LB:g=original	!	!	!	!	!
=118-	=118-	=118-	=118-	=118-	=118-	=118-	=118-	=118-	=118-	=118-	=118-
2D/]	.	.	2F/]	.	.	2f\	.	.	2dd\]	.	.
.	.	.	.	.	.	.	.	.	.	.	.
.	.	.	.	.	.	.	.	.	.	.	.
!LO:TX:t=P:problem=kreska pseudotaktowa:mod=	!	!	!LO:TX:t=P:problem=kreska pseudotaktowa:mod=	!	!	!LO:TX:t=P:problem=kreska pseudotaktowa:mod=	!	!	!	!	!
2D/	-ti-	-ti-	2F/	-ti-	-ti-	2d\	-ti-	-ti-	2dd\	-ti-	-ti-
.	.	.	.	.	.	.	.	.	.	.	.
=119-l	=119-	=119-	=119-	=119-	=119-	=119-	=119-	=119-	=119-	=119-	=119-
1AA;>l	-co.	-co.	1E;>l	-co.	-co.	1e;>l	-co	-co.	1cc#X;>l	-co.	-co.
.	.	.	.	.	.	.	.	.	.	.	.
!	!	!	!LO:LB:g=original	!	!	!	!	!	!LO:LB:g=original	!	!
=120||-	=120||-	=120||-	=120||-	=120||-	=120||-	=120||-	=120||-	=120||-	=120||-	=120||-	=120||-
*M3/2	*	*	*M3/2	*	*	*M3/2	*	*	*M3/2	*	*
2A\	JE-	Je-	2c#\	JE-	Je-	2e\	JE-	Je-	2a\	JE-	Je-
2A\	-ſu	-su,	2c#\	-ſu	-su,	2e\	-ſu	-su,	2a\	-ſu	-su,
!LO:TX:t=P:problem=kreska pseudotaktowa:mod=	!	!	!LO:TX:t=P:problem=kreska pseudotaktowa:mod=	!	!	!LO:TX:t=P:problem=kreska pseudotaktowa:mod=	!	!	!LO:TX:t=P:problem=kreska pseudotaktowa:mod=	!	!
2A\	Ti-	ti-	2c#\	Ti-	ti-	2e\	Ti-	ti-	2a\	ti-	ti-
=121-	=121-	=121-	=121-	=121-	=121-	=121-	=121-	=121-	=121-	=121-	=121-
1F	-bi	-bi	1d	-bi	-bi	1f	-bi	-bi	1a	-bi	-bi
!LO:TX:t=P:problem=kreska pseudotaktowa:mod=	!	!	!LO:TX:t=P:problem=kreska pseudotaktowa:mod=	!	!	!LO:TX:t=P:problem=kreska pseudotaktowa:mod=	!	!	!LO:TX:t=P:problem=kreska pseudotaktowa:mod=	!	!
2D\	sit	sit	2d\	sit	sit	2f\	sit	sit	2a\	sit	sit
=122-	=122-	=122-	=122-	=122-	=122-	=122-	=122-	=122-	=122-	=122-	=122-
2.G\	glo-	glo-	2.Bny\	glo-	glo-	2.d\	glo-	glo-	2.g\	glo-	glo-
4G\	-ri-	-ri-	4B\	-ri-	-ri-	4d\	-ri-	-ri-	4g\	-ri-	-ri-
!LO:TX:t=P:problem=kreska pseudotaktowa:mod=	!	!	!LO:TX:t=P:problem=kreska pseudotaktowa:mod=	!	!	!LO:TX:t=P:problem=kreska pseudotaktowa:mod=	!	!	!LO:TX:t=P:problem=kreska pseudotaktowa:mod=	!	!
2G\	-a	-a,	2B\	-a	-a,	2d\	-a	-a,	2g\	-a	-a,
=123-	=123-	=123-	=123-	=123-	=123-	=123-	=123-	=123-	=123-	=123-	=123-
2E\	qui	Qui	2cny\	q(ui)	Qui	2e\	q(ui)	Qui	2g\	q(ui)	Qui
2F\	na-	na-	2c\	na-	na-	2c\	na-	na-	2a\	na-	na-
!LO:TX:t=P:problem=kreska pseudotaktowa:mod=	!	!	!LO:TX:t=P:problem=kreska pseudotaktowa:mod=	!	!	!LO:TX:t=P:problem=kreska pseudotaktowa:mod=	!	!	!LO:TX:t=P:problem=kreska pseudotaktowa:mod=	!	!
2G\	-t(us)	-tus	2B\	-tus	-tus	2g\	-t(us)	-tus	2b\	-tus	-tus
=124-	=124-	=124-	=124-	=124-	=124-	=124-	=124-	=124-	=124-	=124-	=124-
1A	es	es	4A/	es	es	1e	es	es	4ccny\	es	es
.	.	.	4G/	.	.	.	.	.	4b\	.	.
.	.	.	4A/	.	.	.	.	.	4cc\	.	.
.	.	.	4B/	.	.	.	.	.	4dd\	.	.
!LO:TX:t=P:problem=kreska pseudotaktowa:mod=	!	!	!LO:TX:t=P:problem=kreska pseudotaktowa:mod=	!	!	!LO:TX:t=P:problem=kreska pseudotaktowa:mod=	!	!	!LO:TX:t=P:problem=kreska pseudotaktowa:mod=	!	!
2E\	de	de	2c\	de	de	2e\	de	de	2ee\	de	de
!LO:LB:g=original	!	!	!	!	!	!	!	!	!	!	!
=125-	=125-	=125-	=125-	=125-	=125-	=125-	=125-	=125-	=125-	=125-	=125-
2F\	Vir-	.	1c	vir-	Vir-	2a\	vir-	.	2dd\	.	.
2.G\	.	Vir-	.	.	.	2.g\	.	Vir-	2.dd\	Vir-	Vir-
!	!	!	!LO:TX:t=P:problem=kreska pseudotaktowa:mod=	!	!	!	!	!	!	!	!
.	.	.	2B\	-gi-	-gi-	.	.	.	.	.	.
!LO:TX:t=P:problem=kreska pseudotaktowa:mod=	!	!	!	!	!	!LO:TX:t=P:problem=kreska pseudotaktowa:mod=	!	!	!LO:TX:t=P:problem=kreska pseudotaktowa:mod=	!	!
4GG/	-gi-	-gi-	.	.	.	4g\	-gi-	-gi-	4dd\	-gi-	-gi-
=126-	=126-	=126-	=126-	=126-	=126-	=126-	=126-	=126-	=126-	=126-	=126-
!LO:TX:t=P:problem=kreska pseudotaktowa:mod=	!	!	!LO:TX:t=P:problem=kreska pseudotaktowa:mod=	!	!	!LO:TX:t=P:problem=kreska pseudotaktowa:mod=	!	!	!LO:TX:t=P:problem=kreska pseudotaktowa:mod=	!	!
1.Cny	-ne	-ne	1.c	-ne	-ne,	1.e	-ne	-ne,	1.cc	-ne	-ne,
=127-	=127-	=127-	=127-	=127-	=127-	=127-	=127-	=127-	=127-	=127-	=127-
00.r	.	.	2c\	cu(m)	Cum	2e\	c(um)	Cum	2g\	cum	Cum
.	.	.	2B\	Pa-	Pa-	2d\	Pa-	Pa-	2g\	Pa-	Pa-
!	!	!	!LO:TX:t=P:problem=kreska pseudotaktowa:mod=	!	!	!	!	!	!	!	!
.	.	.	2c\	-tre	-tre	4e\	-tre	-tre	4g\	-tre	-tre
!	!	!	!	!	!	!LO:TX:t=P:problem=kreska pseudotaktowa:mod=	!	!	!LO:TX:t=P:problem=kreska pseudotaktowa:mod=	!	!
.	.	.	.	.	.	4g\	et	et	4g\	et	et
=128-	=128-	=128-	=128-	=128-	=128-	=128-	=128-	=128-	=128-	=128-	=128-
!	!	!	!LO:SIC:s=2A	!	!	!	!	!	!	!	!
.	.	.	2A\,	et,	et	1g	al-	al-	1a	al-	al-
.	.	.	2A\	al-	al-	.	.	.	.	.	.
!	!	!	!LO:TX:t=P:problem=kreska pseudotaktowa:mod=	!	!	!LO:TX:t=P:problem=kreska pseudotaktowa:mod=	!	!	!LO:TX:t=P:problem=kreska pseudotaktowa:mod=	!	!
.	.	.	2d\	-mo	-mo	2f#X\	-mo	-mo	2a\	-mo	-mo
!	!	!	!LO:LB:g=original	!	!	!	!	!	!	!	!
=129-	=129-	=129-	=129-	=129-	=129-	=129-	=129-	=129-	=129-	=129-	=129-
.	.	.	2.G/	ſpi-	Spi-	2.g\	ſpi-	Spi-	2.b\	ſpi-	Spi-
.	.	.	4G/	-ri-	-ri-	4g\	-ri-	-ri-	4b\	-ri-	-ri-
!	!	!	!	!	!	!	!	!	!	!LO:MO:mod=-tu	!
!	!	!	!LO:TX:t=P:problem=kreska pseudotaktowa:mod=	!	!	!LO:TX:t=P:problem=kreska pseudotaktowa:mod=	!	!	!LO:TX:t=P:problem=kreska pseudotaktowa:mod=	!	!
.	.	.	2G/	-tu	-tu,	2g\	-tu	-tu,	2b\	-tus	-tu,
=130-	=130-	=130-	=130-	=130-	=130-	=130-	=130-	=130-	=130-	=130-	=130-
.	.	.	2G/	in	In	2d\	in	In	2b\	in	In
.	.	.	2G/	sem-	sem-	2e\	se(m)-	sem-	2cc#X\	se(m)-	sem-
!	!	!	!LO:TX:t=P:problem=kreska pseudotaktowa:mod=	!	!	!LO:TX:t=P:problem=kreska pseudotaktowa:mod=	!	!	!LO:TX:t=P:problem=kreska pseudotaktowa:mod=	!	!
!	!	!	!	!	!	!	!	!	!	!LO:MO:mod=-pi-	!
.	.	.	2F#X/	-pi-	-pi-	2f#X\	-piter-	-pi-	2dd#X\	-piter-	-pi-
!	!	!	!	!	!	!LO:LB:g=original	!	!	!LO:LB:g=original	!	!
=131-	=131-	=131-	=131-	=131-	=131-	=131-	=131-	=131-	=131-	=131-	=131-
0.r	.	.	4E/	-ter-	-ter-	1g	.	-ter-	1ee	-ter-	-ter-
.	.	.	4D/	.	.	.	.	.	.	.	.
.	.	.	4E/	.	.	.	.	.	.	.	.
!	!	!	!LO:TX:t=P:problem=# below:mod=	!	!	!	!	!	!	!	!
.	.	.	4F#Xi/	.	.	.	.	.	.	.	.
!	!	!	!LO:TX:t=P:problem=kreska pseudotaktowa:mod=	!	!	!LO:TX:t=P:problem=kreska pseudotaktowa:między nutami połączonymi ligaturą:mod=	!	!	!LO:TX:t=P:problem=kreska pseudotaktowa:mod=	!	!
.	.	.	2G/	.	.	2g\	-na	-na	[>2ee\	-na	-na
=132-	=132-	=132-	=132-	=132-	=132-	=132-	=132-	=132-	=132-	=132-	=132-
.	.	.	2A\	-na	-na	1f#X	sae-	sae-	2ee]	.	.
.	.	.	2.B\	sae-	sae-	.	.	.	2ee\	ſae-	sae-
!	!	!	!	!	!	!LO:TX:t=P:problem=kreska pseudotaktowa:mod=	!	!	!LO:TX:t=P:problem=kreska pseudotaktowa:mod=	!	!
.	.	.	.	.	.	2f#\	-cu-	-cu-	2dd#X\	-cu-	-cu-
!	!	!	!LO:TX:t=P:problem=kreska pseudotaktowa:mod=	!	!	!	!	!	!	!	!
.	.	.	4B\	-cu-	-cu-	.	.	.	.	.	.
=133-	=133-	=133-	=133-	=133-	=133-	=133-	=133-	=133-	=133-	=133-	=133-
!	!	!	!LO:TX:t=P:problem=kreska pseudotaktowa:mod=	!	!	!LO:TX:t=P:problem=kreska pseudotaktowa:mod=:mod=	!	!	!LO:TX:t=P:problem=kreska pseudotaktowa:mod=	!	!
1.r	.	.	1.E	-la	-la.	1.g#X	-la	-la.	1.ee	-la	-la.
=134-	=134-	=134-	=134-	=134-	=134-	=134-	=134-	=134-	=134-	=134-	=134-
2F\	Cum	Cum	2c\	cu(m)	Cum	2a\	Cu(m)	Cum	2ccny\	cum	Cum
2E\	Pa-	Pa-	2e\	Pa-	Pa-	2gny\	Pa-	Pa-	2cc\	Pa-	Pa-
!LO:TX:t=P:problem=kreska pseudotaktowa:mod=	!	!	!LO:SIC:s=4c	!	!	!LO:TX:t=P:problem=kreska pseudotaktowa:mod=	!	!	!	!	!
2F\	-tre	-tre	4c\,	-tre,	-tre	2a\	-tre	-tre	4cc\	-tre	-tre
!	!	!	!LO:TX:t=P:problem=kreska pseudotaktowa:mod=	!	!	!	!	!	!LO:TX:t=P:problem=kreska pseudotaktowa:mod=	!	!
.	.	.	4c\	et	et	.	.	.	4cc\	et	et
=135-	=135-	=135-	=135-	=135-	=135-	=135-	=135-	=135-	=135-	=135-	=135-
!	!	!	!	!	!	!LO:SIC:s=2f	!	!	!	!	!
2D\	et	et	1c	al-	al-	2fn\	et	et	1ddny	al-	al-
2D\	al-	al-	.	.	.	2f\	al-	al-	.	.	.
!LO:TX:t=P:problem=kreska pseudotaktowa:mod=	!	!	!LO:TX:t=P:problem=kreska pseudotaktowa:mod=	!	!	!LO:TX:t=P:problem=kreska pseudotaktowa:mod=	!	!	!LO:TX:t=P:problem=kreska pseudotaktowa:mod=	!	!
2G\	-mo	-mo	2B\	-mo	-mo	2g\	-mo	-mo	2dd\	-mo	-mo
=136-	=136-	=136-	=136-	=136-	=136-	=136-	=136-	=136-	=136-	=136-	=136-
2.C/	ſpi-	Spi-	2.c\	ſpi-	Spi-	2.g\	ſpi-	Spi-	2.ee\	ſpi-	Spi-
4C/	-ri-	-ri-	4c\	-ri-	-ri-	4g\	-ri-	-ri-	4ee\	-ri-	-ri-
!LO:TX:t=P:problem=kreska pseudotaktowa:mod=	!	!	!LO:TX:t=P:problem=kreska pseudotaktowa:mod=	!	!	!LO:TX:t=P:problem=kreska pseudotaktowa:mod=	!	!	!LO:TX:t=P:problem=kreska pseudotaktowa:mod=	!	!
2C/	-tu	-tu,	2c\	-tu	-tu,	2g\	-tu	-tu,	2ee\	-tu	-tu,
!	!	!	!LO:LB:g=original	!	!	!	!	!	!	!	!
=137-	=137-	=137-	=137-	=137-	=137-	=137-	=137-	=137-	=137-	=137-	=137-
2C/	in	In	2G/	in	In	2g\	in	In	2e/	in	In
2C/	ſem-	sem-	2A/	sem-	sem-	2f#X\	sem-	sem-	2f#X/	sem-	sem-
!LO:TX:t=P:problem=kreska pseudotaktowa:mod=	!	!	!LO:TX:t=P:problem=kreska pseudotaktowa:mod=	!	!	!LO:TX:t=P:problem=kreska pseudotaktowa:mod=	!	!	!LO:TX:t=P:problem=kreska pseudotaktowa:mod=	!	!
2BB/	-pi-	-pi-	2B/	-pi-	-pi-	2b\	-pi-	-pi-	2g#X/	-pi-	-pi-
=138-	=138-	=138-	=138-	=138-	=138-	=138-	=138-	=138-	=138-	=138-	=138-
4AA/	-ter-	-ter-	1c	-ter-	-ter-	1e	-ter-	-ter-	1a	-ter-	-ter-
4GG/	.	.	.	.	.	.	.	.	.	.	.
4AA/	.	.	.	.	.	.	.	.	.	.	.
4BB/	.	.	.	.	.	.	.	.	.	.	.
!LO:TX:t=P:problem=kreska pseudotaktowa:mod=	!	!	!LO:TX:t=P:problem=kreska pseudotaktowa:mod=	!	!	!LO:TX:t=P:problem=kreska pseudotaktowa:mod=	!	!	!	!	!
2C/	-na	-na	2c\	-na	-na	2e\	-na	-na	1a\	-na	-na
!LO:LB:g=original	!	!	!	!	!	!	!	!	!	!	!
=139-	=139-	=139-	=139-	=139-	=139-	=139-	=139-	=139-	=139-	=139-	=139-
2D\	sae-	.	1B	sae-	sae-	2fn\	sae-	.	.	.	.
2.E\	.	sae-	.	.	.	2.e\	-cu-	sae-	2a\	ſae-	sae-
!	!	!	!LO:TX:t=P:problem=kreska pseudotaktowa:mod=	!	!	!	!	!	!LO:TX:t=P:problem=kreska pseudotaktowa:mod=	!	!
.	.	.	2B\	-cu-	-cu-	.	.	.	2g#X\	-cu-	-cu-
!LO:TX:t=P:problem=kreska pseudotaktowa:mod=	!	!	!	!	!	!LO:TX:t=P:problem=kreska pseudotaktowa:mod=	!	!	!	!	!
4E\	-cu-	-cu-	.	.	.	4e\	.	-cu-	.	.	.
=140-	=140-	=140-	=140-	=140-	=140-	=140-	=140-	=140-	=140-	=140-	=140-
!LO:TX:t=P:problem=kreska pseudotaktowa:mod=	!	!	!LO:TX:t=P:problem=kreska pseudotaktowa:mod=	!	!	!LO:TX:t=P:problem=kreska pseudotaktowa podwójna:mod=	!	!	!LO:TX:t=P:problem=kreska pseudotaktowa:mod=	!	!
!	!	!	!	!	!	!LO:TX:t=P:problem=podwójna kreska:mod=	!	!	!	!	!
1.AA	-la	-la.	1.c#X	-la	-la.	1.e	-la	-la.	1.a	-la	-la.
!	!	!	!	!	!	!LO:MO:mod==141	!	!	!	!	!
=141-	=141-	=141-	=141-	=141-	=141-	=141||-	=141||-	=141||-	=141-	=141-	=141-
1D	a-	A-	1d	a-	A-	1f	a-	A-	1a	a-	A-
!LO:TX:t=P:problem=kreska pseudotaktowa:mod=	!	!	!LO:TX:t=P:problem=kreska pseudotaktowa:mod=	!	!	!LO:TX:t=P:problem=kreska pseudotaktowa:mod=	!	!	!LO:TX:t=P:problem=kreska pseudotaktowa:mod=	!	!
2C#X/	-men	-men,	2A\	-men	-men,	2e\	-men	-men,	2a\	-men	-men,
=142-	=142-	=142-	=142-	=142-	=142-	=142-	=142-	=142-	=142-	=142-	=142-
!LO:TX:t=P:problem=kreska pseudotaktowa:mod=	!	!	!LO:TX:t=P:problem=kreska pseudotaktowa:mod=	!	!	!LO:TX:t=P:problem=kreska pseudotaktowa:mod=	!	!	!LO:TX:t=P:problem=kreska pseudotaktowa:mod=	!	!
*	*	*	*	*	*	*	*ij	*	*	*ij	*
1.D	a-	a-	1.d	a-	a-	1.f	a-	a-	1.a	a-	a-
=143-	=143-	=143-	=143-	=143-	=143-	=143-	=143-	=143-	=143-	=143-	=143-
1.AA;>l	-men.	-men.	1.c#X;>l	-men.	-men.	1.e;>l	-men	-men.	1.a;>l	-men	-men.
*	*	*	*	*	*	*	*Xij	*	*	*Xij	*
==	==	==	==	==	==	==	==	==	==	==	==
*-	*-	*-	*-	*-	*-	*-	*-	*-	*-	*-	*-
!!!system-decoration: [(s1,s2,s3,s4)]
!!LO:MO:ori
!!!RDF**kern: > = above
!!!RDF**kern: < = below
!!!RDF**kern: l = terminal long
!!LO:MO:end
!!!RDF**kern: @ = marked note, color=grey
!!!filter-modern: sic -sq | autostem -r | tie -s | shed -e "s/-//B" | shed -e "s/yy//" | shed -e "s/^(\d+[\/\\]right)/$1yy/I; s/^(\d+[\/\\]left)/$1yy/I" | shed -e "s/^custos:/Xcustos:/I" | shed -e "s/TX(.*):t=P:/tx$1:t=P:/LG" | shed -e "s/LO:N:/LO:n:$1/L" | modori -m
!!!ENC: Anastazja Marusiak
!!!END: 2021-03-18
!!!EED: Mateusz Mrugas
!!!EEV: 2021-03-26
!!!ENC-modern: Marta Lawrence
!!!END-modern: 2022-12-15
